X:1
T:Piano Sonata No.2.
T:SONATE
T:F.Chopin, Op.35.
C:F.Chopin, Op.35.
%%score { ( 1 4 5 6 ) | ( 2 3 ) }
L:1/8
Q:1/2=50
M:2/2
K:Db
V:1 treble nm="Piano" snm="Pno."
V:4 treble 
V:5 treble 
V:6 treble 
V:2 bass 
V:3 bass 
V:1
"^Grave" z8 |[Q:1/2=50] z4[K:bass] (!>![^C,^G,^C]4 | %2
[Q:1/2=180]!<(! D,2 D,2- _E,2- =A,2-!<)![Q:1/2=40] (([D,E,-A,-D]8 |!f! [C,E,A,C]8))) |: %4
[K:treble][Q:1/2=120] x8 | x8 |!>(! x8 | x8!>)! |!p!"^agitato" (dB) z (c dB) z2 | %9
 (dB) z (c dB) z2 |!<(! (dB) z (c db) z2!<)! |!p!!>(! (=ac) z (d ec)!>)! z2 |!p! (gc) z (d ec) z2 | %13
!p!!<(! (gc) z (d ec) z2 | (gc) z (d ec') z2!<)! |!mp!!>(! c'2 x2 b2!>)! x2 | %16
!f! ([dd'][=gc']) z!<(! ([db] [f=a]!f![cc'])!<)! z2 | %17
!p! ([_G_g][cf]) z!<(! ([Ge] [Bd]!mp![Ff])!<)! z2 | %18
!f! ([dd'][=gc']) z!<(! ([db] [f=a]!f![cc'])!<)! z2 | %19
!p! ([_G_g][cf]) z!<(! ([Ge][Q:1/2=116] [B=d]!mp![F_df])!<)![Q:1/2=112] z2 | %20
[Q:1/2=108]!f! b4[Q:1/2=112] _e4 | %21
[Q:1/2=108]!p! ([Bb][=e_a]) z ([=G=g][Q:1/2=112] [_e_g][_Gc]) z2 | %22
[Q:1/2=120]!p!"_cresc." ([Aa][=d=g]) z ([Ff] [c_e][_E=G]) z2 | %23
[Q:1/2=116]!mp!"_cresc." ([ce][E_G]) z2[Q:1/2=114] ([ce][_EF])!mf! z2 | %24
!f![Q:1/2=114] (d"^"[DFB]) z (c d"^"[DFB]) z2 | (d"^"[DFB]) z (c d"^"[DFB]) z2 | %26
 (d"^"[DFB]) z!<(! (c d!f![Bfb])!<)! z2 |!f! (=a"^"[=Ac]) z (d e"^"[GAc]) z2 | %28
 (g"^"[G=Ac]) z (d e"^"[GAc]) z2 | (g"^"[G=Ac]) z (d e"^"[GAc]) z2 | %30
 (g"^"[G=Ac]) z!<(! (d e!<)!!f![cgc']) z2 |!f! (c'"^"[cd]) z!<(! (e f!<)![Bdb]) z2 | %32
!f! (d'"^"[d=gc']) z!<(! (b =a!f![cfc'])!<)! z2 |!f! (_g"^"[Gcf]) z!<(! (e =d!f![FB_df])!<)! z2 | %34
!f!"_cresc." (d'"^"[d=gc']) z!<(! (b =a[cfc'])!<)! z2 | %35
[Q:1/2=112] (_c'"^"[_cfb]) z!<(! (a[Q:1/2=110] =g[B_gb])!<)! z2 | %36
[Q:1/2=88]!ff! (g6[Q:1/2=104][Q:1/2=108]"^" f2 | %37
[Q:1/2=112] f2"^" e4[Q:1/2=108]"^"[Q:1/2=92] d2) | %38
[Q:1/2=80]!f! .[D_Gd]2 .[CGc]2[Q:1/2=70] z2!>(! ([A,DGB]2 | %39
[Q:1/2=60] [A,=DG_B]4[Q:1/2=50] [A,EGA]4)!>)! |"^sostenuto"[Q:1/2=92] (F,2!p![Q:1/2=88] ([F,DA]8) | %41
 [A,DF]4 [B,EG]4 | [G,-C-F]8 |[Q:1/2=86] [G,CE]8)[Q:1/2=84][Q:1/2=160] |!p![Q:1/2=88] x/x/ (A4 F4 | %45
!<(! [B,G]2 [A,F]2!<)!!p!!>(! [CA]2 [B,G]2!>)! |!>(! [G,-C-F]8 | %47
[Q:1/2=86] [G,CE]8)!>)![Q:1/2=84][Q:1/2=160] |[Q:1/2=88]!p! x/x/ ([F,A]4!<(! [=EB]4 | %49
[Q:1/2=87] c4[Q:1/2=86] d3 [ce] |[Q:1/2=88]!p! [Fdf]4)!<)! ([D=EB]4 | %51
[Q:1/2=87]!<(! c4[Q:1/2=72] !arpeggio!d3[Q:1/2=86] e!<)![Q:1/2=80][Q:1/2=68] | %52
[Q:1/2=88]!mp! [Ef]4 [F-e]4 |[Q:1/2=87] [DFBd]4[Q:1/2=86] [=EAc]3 [FB] | %54
[Q:1/2=85] [_CFA]4[Q:1/2=84] [G,B,_EG]3[Q:1/2=76] [A,_DF] | %55
[Q:1/2=72]!<(! E6[Q:1/2=68][Q:1/2=40] =E[Q:1/2=42] x/x/!<)! | %56
[Q:1/2=60]!f! (!arpeggio![Fda]8)[Q:1/2=88] | [Adf]4 [FA]2 [Beg]2 | f6 e2) | %59
[Q:1/2=86] (B2 A2[Q:1/2=84] D2 E2)[Q:1/2=180] |[Q:1/2=80] x[Q:1/2=88]{/F} ([Fa]4 [Af]4 | d4 x4 | %62
 f6 e2) |[Q:1/2=86]!>(! (3(B2 A2 B2[Q:1/2=84] (3A2 D2 E2)!>)![Q:1/2=82][Q:1/2=180] | %64
[Q:1/2=80]!mp!"_cresc." x/-x/-[Q:1/2=88] (!arpeggio![Fd-a-]4 [Bdab]4 | [cc']4 [dd']3 [ee'] | %66
 [f-a-f']4) ([Bfab]4 | [cc']4 [dd']3[Q:1/2=80] [ee'] |[Q:1/2=88]!8va(! [ff']4 !>![gg']4- | %69
[Q:1/2=87] [gg']2 [ff']2[Q:1/2=86] [=e=e']2 [ff']2) |!f![Q:1/2=90] ([aa']4 !>![bb']4- | %71
[Q:1/2=88] [bb']2 [aa']2[Q:1/2=84] [gg']3[Q:1/2=80] [ff'] |[Q:1/2=88] b4!8va)![Q:1/2=90] b4 | %73
[Q:1/2=92] b4 =e4 | f4 [D_Gd-]2 [Gdg]2 | [Ede]4)[Q:1/2=90] c4[Q:1/2=89] | %76
 d4[Q:1/2=90] (3[_Ad_a]2 [Dd-]2 [Gdg]2 |[Q:1/2=90] [Gd]4!<(! [Ac]4!<)! | %78
[Q:1/2=88]!ff! (3[=G_d-=g]2 [Ada]2[Q:1/2=84] [ff']2 (3[e_g-e']2 [dgd']2[Q:1/2=82] [_Gdg]2 | %79
[Q:1/2=76]!>(! e6-!>)![Q:1/2=72][Q:1/2=68] e>[Q:1/2=40]d | %80
[Q:1/2=114] (3!>![Fd]2[Q:1/2=120] (.[EB]2 .[EB]2!>(! (3[E-B]2!>)! .[EA]2) (.[c_g]2 | %81
!>(! (3[cg]2!>)! .[df]2) (.[eb]2!>(! (3[e-b]2!>)! .[ea]2) (.[c'_g']2 | %82
!>(! (3[c'g']2!>)! .[d'f']2) ([eb]2!>(! (3[e-b]2!>)! .[ea]2) (.[c_g]2 | %83
!>(! (3[cg]2!>)! .[df]2) (.[EB]2!>(! (3[E-B]2!>)! .[EA]2)!mf! (.[C_G]2 | %84
!>(! (3[CG]2!>)!!mp! .[DF]2)!p! (.[_F__B]2!>(! (3[FB]2!>)! .[EA]2) (.[c_g]2 | %85
!>(! (3[cg]2!>)! .[d=f]2) ([_f__b]2!>(! (3[fb]2!>)! .[ea]2) (.[c'_g']2 | %86
!>(! (3[c'g']2!>)! .[d'=f']2) (.[_f__b]2!>(! (3[fb]2!>)! .[ea]2) (.[cg]2 | %87
!>(! (3[cg]2!>)! .[d=f]2) (.[_F__B]2!>(! (3[FB]2!>)! .[EA]2) (.[CE_G]2 | %88
!>(! (3[C^D^F]2!>)! .[C=E=G]2)!p!"_cresc." (.[=DFc]2!>(! (3[DFc]2!>)! .[DG=B]2) (.[=FGB=f]2 | %89
!mp!!>(!"_cresc." (3[F=G=Bf]2!>)! .[Gc=e]2) (.[c=d^fc']2!>(! (3[cdfc']2!>)! .[B=g=b]2) (.[=fgb=f']2 | %90
!mf![Q:1/2=119]"_cresc." (3.[f=g=bf']2) (([^A=d]2 .[=B_a]2)[Q:1/2=118] (3([^cf]2 .[d=b]2) ([=ea]2 | %91
[Q:1/2=117] (3.[f=d']2) ([=g=b]2 .[af']2)[Q:1/2=114] (3([^ad']2 .[b_a']2)!8va(! ([b=b']2 | %92
[Q:1/2=110]!f! (3.[c'=g'c'']2))!8va)![Q:1/2=120] [C=Gc]2"^stretto" ([CGc]2 (3!>![CGc]2 [C^Gc]2) [CGc]2 | %93
 (3[C^Gc]2 [CGc]2"_cresc." [CGc]2 (3[CGc]2 [CGc]2 ([CGc]2 | %94
 (3!>![C^Gc]2 [C=Ac]2) ([CAc]2 (3!>![CAc]2 [CA^c]2) [CAc]2 | %95
 (3[^C=A^c]2 [CAc]2 ([CAc]2[Q:1/2=116] (3!>![CAc]2 [C^Gc]2 [_D=G_d]2 | %96
!ff![Q:1/2=114] (3[D_Ad]2)[Q:1/2=120] [FAf]2 [FAf]2!>(! (3[FAf]2 [Ee]2!f! [Dd]2!>)! | %97
!ff![Q:1/2=110] (3z2[Q:1/2=120] [FBf]2 [FBf]2!>(! (3[FBf]2 [Ee]2!f! [Dd]2!>)! | %98
!ff![Q:1/2=110] (3z2[Q:1/2=120] [FAf]2 [FAf]2[Q:1/2=110]!>(! (3[FAf]2 [Ee]2!f! [Dd]2!>)! | %99
!ff![Q:1/2=100] (3z2[Q:1/2=110] [F=Gf]2 [FGf]2[Q:1/2=100]!>(! (3[FGf]2 [Ee]2!f![Q:1/2=90] [Dd]2!>)! | %100
!ff![Q:1/2=120]!>(! ([E,=G,DE]8-!>)! | [E,G,DE]8 |!f!!>(! [_G,CF]8-!>)! |1 ([G,CF]8-) :|2 %104
"^rit."[Q:1/2=100]!<(! F6-)[Q:1/2=80] F>[Q:1/2=40]^F ||"^(a tempo)"!mp![Q:1/2=120] [^F,^C^F]8!<)! | %106
[K:bass]"_sotto voce"!p! (=A,,^F,,) z (^G,, A,,F,,) z2 | (=A,,^F,,) z (^G,, A,,^F,) z2 | %108
[K:treble][Q:1/2=88]!<(! (=A4[Q:1/2=84] ^A4!<)! |!mp![Q:1/2=80]!>(! [D=B]3 =D D4)!>)! | %110
[Q:1/2=70] z8 |[Q:1/2=110] z8 |[K:bass][Q:1/2=112] (=D,=G,,) z (=A,, =B,,G,,) z2 | %113
[Q:1/2=114] (=D,^G,,) z (=A,,!pp!!<(! =B,,G,,) z2 |[Q:1/2=116] (=D,^G,,) z (=A,, =B,,G,,) z2 | %115
[Q:1/2=118] (=D,=B,,) z (^C, D,!mp!=B,)!<)! z2 | %116
[K:treble][Q:1/2=88]!p!!<(! (=B4[Q:1/2=84] ^B4!<)! | %117
!mp![Q:1/2=80]!>(! [=E^c]3 ^E[Q:1/2=70] E4-)!>)! |[Q:1/2=100] [=CE]8 | %119
[Q:1/2=80]!p!"_cresc." ([^E^c]3!<(! ^F F4) |[Q:1/2=70] ([^F=d]3 =G G4)!<)! | %121
!mp![Q:1/2=114]!>(! (_e6 =d2 | =d3 =c c3 _B | B3 _A[Q:1/2=112] (3A2 c2!>)! B2 | %124
[Q:1/2=114] A4[Q:1/2=112]!p! =G2) (=g2 | %125
[Q:1/2=116]"_cresc." ([_B,_B][^C=A])) z ([=A,=G] [=D^F][A,A]) z ([=C=c] | %126
[Q:1/2=118] [Cc][^D=B]) z ([=B,=A] [=E^G][B,B]) z ([=D=d] | %127
[Q:1/2=120] [=D=d][^E^c]) z ([^C=B][Q:1/2=118]!<(! (3[^F^A]2 [Cc]2 [_Ac]2 | %128
[Q:1/2=116] (3[=E=e]2 [^ce]2 [^A^a]2[Q:1/2=114] (3[^g^c']2 [e=e']2[Q:1/2=112] [e'=e'']2)!<)! | %129
!mf![Q:1/2=114]!>(! ([=C=c]6 [_B,_B]2 | [B,B]4 [A,A]3 [A,A] | %131
 [A,A]3 [=G,=G]!>)![Q:1/2=112] (3[G,G]2 [F,F]2 [=E,=E]2 | %132
[Q:1/2=110]!>(! [=G,=G]4!>)!!p! [^F,^F]2)[Q:1/2=114] !>!=a2 | %133
[Q:1/2=116]"_cresc." ([Cc][^F=B]) z ([=B,=A] [=E^G][B,B]) z ([=D=d] | %134
[Q:1/2=118] [=D=d][^G^c]) z ([^C=B] [^F^A][Cc]) z ([=E=e] | %135
[Q:1/2=120] [=E=e][^A^d]) z!<(! ([^D^c][Q:1/2=118] (3[^G^B]2 [Dd]2 [Bd]2 | %136
[Q:1/2=116] (3[^F^f]2 [_ef]2 [=A=a]2[Q:1/2=114] (3[fa]2 [=d=d']2[Q:1/2=112] [f^f']2!<)! | %137
!ff![Q:1/2=114] [=d'=g'][=g_b]) z ([=ac'] [bd'][=dg]) z2[Q:1/2=92] | %138
[Q:1/2=114] ([b=d'][=d=g]) z ([^f=a] [gb][d'=g']) z2 | %139
 ([_d'f'][fb]) z ([=ac'] [bd'][_df]) z2[Q:1/2=92] | %140
[Q:1/2=114] ([d'f'][fb]) z ([=ac'] [bd'][f'b']) z2 | %141
 ([c'f'][f_a]) z ([=gb] [ac'][cf]) z2[Q:1/2=92] |[Q:1/2=114] ([ac'][cf]) z ([=e=g] [fa][c'f']) z2 | %143
 ([c'=e'][=e_a]) z ([=gb] [ac'][ce]) z2[Q:1/2=92] | %144
[Q:1/2=114] ([ac'][c=e]) z ([_e=g] [=ea][c'=e']) z2 | %145
 ([=b=e'][=e=g]) z ([^f=a] [gb][=Be]) z2[Q:1/2=92] | %146
[Q:1/2=114] ([=g=b][=B=e]) z ([^d^f] [eg][b=e']) z2 | ([=b=d'][=d=g]) z ([^f=a] [_gb][=Bd]) z2 | %148
 ([=b=d'][=d=g]) z ([^f=a] [gb][d'=g']) z2 | ([=a=d'][=d^f]) z ([=e=g] [fa][=Ad]) z2 | %150
 ([=f=a][=A=d]) z ([^c=e] [df][a=d']) z2 | %151
[Q:1/2=116] (3([=ac'f']2 _g2 [fac']2 (3c2 [cfa]2 =A2[Q:1/2=92] | %152
[Q:1/2=118] (3[F=Af]2 _G2 [FAc]2 (3C2 [=A,CF]2 [F,F]2) | %153
[Q:1/2=120] (!>![_G,_G]ED"_cresc."_C) (!>![G_c][CE]) z ([D_F] | %154
 [EG][_ce]) z2 (!>![eg][Gc]) z ([Bd] | [_ce][g_c']) z2 (!>![c'e'][eg]) z ([_fb] | %156
 [g_c'][e'g']) z2[Q:1/2=110]!8va(! (3[__ab]2 [ad'__a']2 [ad'a']2 | %157
!ff![Q:1/2=100]!>(! !>![__a__a']!>)![gg']!8va)![Q:1/2=120] z2!f! (!>![G_c][_CE]) z ([D_F] | %158
"_cresc." [EG][_ce]) z2 (!>![eg][Gc]) z ([Bd] | [_ce][g_c']) z2 (!>![c'e'][eg]) z ([_fb] | %160
 [g_c'][e'g']) z2[Q:1/2=110]!<(! (3([=gb]2 [gd'=g']2 [gd'g']2)!<)! | %161
!ff![Q:1/2=120]"^stretto" (3([^g=c'^g']2 [=a_e'=a']2) (!>![B,B]2[Q:1/2=122] (3[=A,=A]2 [E_G]2) (!>![Dd]2 | %162
[Q:1/2=124]"_cresc." (3[Cc]2 [EG]2) (!>![B,B]2[Q:1/2=126] (3[=A,=A]2 [EG]2) (!>![Dd]2 | %163
[Q:1/2=128] (3[Cc]2 [EG]2) (!>![Gg]2[Q:1/2=130] (3[Ff]2 [ce]2) (!>![Bb]2 | %164
[Q:1/2=132] (3[=A=a]2 [eg]2) (!>![dd']2[Q:1/2=136] (3[cc']2 [eg]2) (!>![gg']2- | %165
 (3[gg']2!>(! [c'f']2 [g=e']2 (3[c'_e']2 [g=d']2 [=a_d']2 | %166
 (3[ec']2 [g_c']2 [eb]2[Q:1/2=128] (3[g__b]2 [=ca]2 [e=g]2 | %167
[Q:1/2=114] (3[=A_g]2 [cf]2 [A_f]2"_(rit.)"[Q:1/2=100] (3[ce]2 [E=d]2 [A_d]2!>)! | %168
[Q:1/2=80] (3[Ec]2 [=A=B]2 [E=d]2[Q:1/2=50]!mp! (3[Ac]2[Q:1/2=40] [A=g]2[Q:1/2=60] [ef]2) || %169
[K:Bb]"^sostenuto"[Q:1/2=92] (D2[Q:1/2=88]!>(! ([DBf]8) | [FBd]4!>)!!p! [Gce]4 | [E-d]8 | %172
[Q:1/2=86] [Ec]8)[Q:1/2=84] |[Q:1/2=88] ([DBf]4!<(! [FB-d]4 | B4!<)!!p![Q:1/2=87]!>(! f2 e2 | %175
[Q:1/2=86] [E-=A-d]8!>)![Q:1/2=85] |!p![Q:1/2=84] [EAc]8)[Q:1/2=72] | %177
!p!!pp![Q:1/2=84] ([DBf]4!<(! [GBg]4 | e8[Q:1/2=82][Q:1/2=60][Q:1/2=70] | %179
!p![Q:1/2=88] [dbd']4)!<)!!p! ([GB_dg]4 |!<(! a4 b3[Q:1/2=80][Q:1/2=70] c'!<)![Q:1/2=50] | %181
[Q:1/2=84] [dad']4!mp! [cdac']4 | [Bdgb]4 [^c=fa]3 [Gdg] | %183
 [FGdf]4[Q:1/2=80] [EG=ce]3[Q:1/2=64] [^F_Bd] |[Q:1/2=80]!>(! [Cc]8)[Q:1/2=76]!>)! | %185
[Q:1/2=76]!mp! (!arpeggio![DBf]8[Q:1/2=88] | [FBd]4[Q:1/2=84] [DF]2[Q:1/2=84] [Gce]2 | %187
[Q:1/2=88] d6[Q:1/2=80] c2) |[Q:1/2=84] (G2 F2[Q:1/2=80] B,2 C2) |[Q:1/2=88] B8 | %190
 B4[Q:1/2=84] x4[Q:1/2=80] |[Q:1/2=88] d6 c2 | %192
[Q:1/2=84]!>(! (3(G2 F2 G2[Q:1/2=80] (3F2 B,2 C2)!>)![Q:1/2=180] | %193
[Q:1/2=80] x/!p!x/[Q:1/2=88]"_cresc." B8 | [ef]8[Q:1/2=84][Q:1/2=80] |[Q:1/2=88] d'4 [Gg]4 | %196
 [ef]8[Q:1/2=84][Q:1/2=80] |[Q:1/2=88] [ac']8 | [gb]8 | [=c'e']8[Q:1/2=86] | %200
[Q:1/2=84] d'4[Q:1/2=80] g4[Q:1/2=76] |!ff![Q:1/2=92] g4[Q:1/2=96] g4 |[Q:1/2=100] g4 _d4 | %203
[Q:1/2=104] [ce]4[Q:1/2=108] [Be]4 |[Q:1/2=112] [ce]4[Q:1/2=116] [Ae]4 | %205
 [FBf]2 ([^FB^f]2 [=GB=g]2 [=FB=f]2 | [Ac]2 [F_Ad]2 [E=Ge]2 [_G=A]2 | %207
[Q:1/2=112] [FB]2 [E_Gc]2[Q:1/2=108] [DFd]2 [B,_D=G] x |[Q:1/2=104] [B,B]4[Q:1/2=100] [A,A]4 | %209
[Q:1/2=110]!ff! (3[B,DB]2)[Q:1/2=120] (.[_D_G]2 .[DG]2!>(! (3[DG]2!>)! [CF]2)!f! (.[A_e]2 | %210
!>(! (3[Ae]2!>)! .[B=d]2) (.[_d_g]2!>(! (3[dg]2!>)! .[cf]2) (.[a_e']2 | %211
!>(! (3[ae']2!>)! .[bd']2) (.[_d_g]2!>(! (3[dg]2!>)! .[cf]2) (.[A_e]2 | %212
!>(! (3[Ae]2!>)! .[Bd]2) (.[_D_G]2!>(! (3[DG]2!>)! .[CF]2)!mf! .[A,E]2 | %213
!>(! (3[A,E]2!>)! .[B,D]2!p! (.[C=G]2!>(! (3[C-G]2!>)! .[CF]2) (.[A_e]2 | %214
!>(! (3[Ae]2!>)! .[Bd]2) (.[cg]2!>(! (3[c-g]2!>)! .[cf]2) (.[a_e']2 | %215
!>(! (3[ae']2!>)! .[bd']2) (.[cg]2!>(! (3[c-g]2!>)! .[cf]2) (.[Ae]2 | %216
!>(! (3[Ae]2!>)! .[Bd]2) (.[CG]2!>(! (3[C-G]2!>)! .[CF]2) (.[A,C_E]2 | %217
!>(! (3[A,^B,^D]2!>)! .[A,^C=E]2)"_cresc." (.[A,=B,=DA]2!>(! (3[A,B,DA]2!>)! .[^G,E^G]2) (.[DG=d]2 | %218
 (3[D=E^Gd]2 .[^CA^c]2) (.[A=B^da]2 (3[ABda]2 .[G=e^g]2) (.[=deg=d']2 | %219
[Q:1/2=119] (3.[d=e^gd']2)!mp!!<(! (([^^F=B]2 .[^G=f]2)[Q:1/2=118] (3([^Ad]2 .[B^g]2) ([^cf]2 | %220
[Q:1/2=117] (3.[d=b]2) ([=e^g]2 .[fd']2)[Q:1/2=114] (3([^^fb]2 .[g=f']2)[Q:1/2=100] ([g^g']2!<)! | %221
[Q:1/2=110] (3.[a=e'a']2))[Q:1/2=120]!f!"_cresc." [A,=EA]2 ([A,EA]2 (3!>![A,EA]2 [A,FA]2) [A,FA]2 | %222
 (3[A,FA]2 [A,FA]2 [A,FA]2 (3[A,FA]2 [A,FA]2 ([A,FA]2 | %223
 (3!>![A,FA]2 [B,FB]2) ([B,FB]2[Q:1/2=118] (3!>![B,FB]2 [B,_GB]2) [B,GB]2 | %224
[Q:1/2=114] (3[B,_GB]2 [B,GB]2 ([B,GB]2[Q:1/2=110] (3!>![B,GB]2 [B,FB]2 [B,=EB]2 | %225
!ff![Q:1/2=106] (3[B,FB]2)[Q:1/2=120] [DFd]2 [DFd]2!>(! (3[DFd]2 [Cc]2!>)!!f! [B,B]2 | %226
[Q:1/2=110]!ff! (3z2[Q:1/2=120] [D_Gd]2 [DGd]2!>(! (3[DGd]2 [Cc]2!>)!!f! [B,B]2 | %227
!ff![Q:1/2=110] (3z2[Q:1/2=120] [DFd]2 [DFd]2!>(! (3[DFd]2 [Cc]2!>)!!f! [B,B]2 | %228
!ff![Q:1/2=100] (3z2[Q:1/2=110] [Ed]2 [Ed]2[Q:1/2=100]!>(! (3d2 c2!>)!!f![Q:1/2=90] B2 | %229
[Q:1/2=114] !>![DFBd]8 |[Q:1/2=115] !>![DFBd]4[Q:1/2=116] !>![DF_cd]4 | %231
[Q:1/2=117] !>![DFBd]4[Q:1/2=118] !>![DF=Bd]4 |[Q:1/2=120] !>![^D^F=B^d]4[Q:1/2=122] !>![DFcd]4 | %233
"_cresc." !>![=EGc=e]4 !>![EG_de]4 |[Q:1/2=120] !>![F_A_df]4[Q:1/2=110] !>![F=A_ef]4 | %235
[Q:1/2=124] !>![F_Bf]4 !>![_GB_g]4 | !>![Bceb]4 !>![Acea]4 | !>![Bdb]4 !>![Be_gb]4 | %238
 !>![Bdfb]4 !>![Be_gb]4 |!fff![Q:1/2=120] [Bdfb]8 |[Q:1/2=100]!8va(! [bb']8!8va)! | %241
[K:bass] !fermata![D,F,B,D]4 !breath!x4 |] %242
[K:Gb][M:3/4][K:treble][K:bass]!f!"^SCHERZO"[Q:3/4=80] !>![B,,B,]2 | %243
[Q:3/4=84]!<(! .[E,E].[E,E].[E,E].[E,E]!<)! !>![E,E]2 | %244
!f! !wedge![F,CEF]2[K:treble] ([Fcef][Ee][FB=df][Gg]) | %245
!mf!!<(! .[G,G].[G,G].[G,G].[G,G]!<)! !>![G,G]2 | %246
!f! !wedge![^G,=D^F^G]2 ([^G=d^f^g][Ff][G^c^eg][=A=a]) | %247
!mf!!<(! .[=A,=A].[A,A].[A,A].[A,A] !>![A,A]2 | %248
 .[_A,_B,F_A_B].[A,B,FAB].[A,B,FAB].[A,B,FAB]!<)!!f! !>![A,B,=DAB]2 | %249
!mf!!<(! .[B,EGB].[B,EGB].[EGB].[EGB] !>![EGB]2!<)! | %250
!f!!>(! ([B,EB]2!>)! [A,EA]2)!mf! (!>![G,=A,EG]2 |!<(! [G,B,D])(D[Gd])(G[Bg])(B | %252
 [db])(d[gd'])(g[bg'])(b-!<)! |!ff!!>(! [bd'b']2!>)! [ad'a']2)!mf![Q:3/4=83] (.[dad']2 | %254
!>(! [dad'-]2 [gd'g']2)!>)!!p![Q:3/4=82] (.[DAd]2 | [DAd-]2 [Gdg]2)[Q:3/4=81] (.[DAd]2 | %256
 [DAd-]2 [Gdg]2)[Q:3/4=80] (.[Dd]2 |[Q:3/4=60]!>(! [Dd]6!>)! | [B,B]6-) |[Q:3/4=76] [B,B]6- | %260
[Q:1/4=240]"^  ="[Q:3/4=78] [B,B]6- |[Q:3/4=80] [B,B]6 |[Q:3/4=82] z6 | %263
[K:bass][Q:3/4=84]!mf!!<(! .[E,E].[E,E].[E,E].[E,E]!<)! !>![E,E]2 | %264
!f! !wedge![F,CEF]2[K:treble] ([Fcef][Ee][FB=df][Gg]) | %265
!mf!!<(! .[G,G].[G,G].[G,G].[G,G]!<)! !>![G,G]2 | %266
!f! !wedge![^G,=D^F^G]2 ([^G=d^f^g][Ff][G^c^eg][=A=a]) | %267
!mf!!<(! .[=A,=A].[A,A].[A,A].[A,A] !>![A,A]2!<)! | %268
!<(! .[=B,F=A=B].[B,FAB].[B,FAB].[B,FAB] !>![B,FAB]2 | %269
 .[=C^D=A=c].[CDAc].[CDAc].[CDAc]!<)! !>![CD^Fc]2 | %270
!ff!!>(! ([=E^F=A=e]2!>)! [=D=G=d]2)[K:bass]!f! (!>![=D,=D]2 | %271
!<(! [^C,^C])[K:treble](^C[^F^c])(F[=A^f])(A | [^c=a])(c[^f^c'])(f[a^f'])!<)!(a- | %273
!ff!!>(! [a^c'=a']2!>)! [^gc'^g']2)!mf![Q:3/4=83] (.[^cgc']2 | %274
!>(! [^c^g^c'-]2!>)! [^fc'^f']2)!p![Q:3/4=82] (.[^C^Gc]2 | %275
 [^C^G^c-]2 [^Fc^f]2)[Q:3/4=81] (.[CGc]2 | [^C^G^c-]2 [^Fc^f]2)!f![Q:3/4=80]!>(! (!>![Cc]2-!>)! | %277
 [Cc]2!mp![Q:3/4=78] [=D=d][^C^c][Q:3/4=76][^G,^G][=A,=A] |[Q:3/4=60] !>![^F,^F]6) || %279
[Q:3/4=84] !wedge![=D=d]2!p! ([=A,D]!<(![A,D][^G,^C][A,D] | [_B,_E][=B,=E][=CF][^C^F][=D=G][_E_A] | %281
 [=E=A][F_B][^F=B][=G=c][^G^c][A=d] | %282
[Q:3/4=80] [=A=d]2!<)![Q:3/4=76] [_B_e]2)[Q:3/4=72] .[eb_e']2 | %283
[Q:3/4=68]!8va(! .[e'e'']2!8va)!!p![Q:3/4=84] ([B,E]!<(![B,E][=A,=D][B,E] | %284
 [=B,=E][=CF][^C^F][=D=G][_E_A][=E=A] | [=F_B][^F=B][=G=c][^G^c][=A=d][_B_e] | %286
[Q:3/4=80] [Be]2!<)![Q:3/4=76] [=B=e]2)[Q:3/4=72] .[e=b=e']2 | %287
[Q:3/4=68]!8va(! .[=e'=e'']2!8va)![Q:3/4=80] ([=E=e][Ee][^D^d][Ee]) | %288
 (!>![^E^e].[^F^f]).[=G=g].[Gg].[Gg].[Gg] | (!>![=G=g].[^F^f]).[Ff].[Ff].[^E^e].[Ff] | %290
 (!>![=G=g].[^G^g])!<(!.[=A=a].[Aa][Q:3/4=78].[Aa].[Aa] | %291
[Q:3/4=77] (!>![=A=a].[^G^g])[Q:3/4=76].[Gg].[Gg][Q:3/4=75].[^^F^^f]!<)![Q:3/4=74].[Gg] | %292
[Q:3/4=70]!f! [_A_d_a]2[Q:3/4=35][Q:3/4=76] ([Ada][=G=g][Ada][Bb] | [Ada]2 .[aa']2) [Gdg]2 | %294
 [Gcg]2[Q:3/4=60][Q:3/4=76] ([Gcg][Ff][Gcg][Aa] | [^F=B^f]2 .[gg']2) [=EB=e]2 | %296
 [=E=A=e]2[Q:3/4=60][Q:3/4=76] ([EAe][^D^d][EAe][^F^f] | %297
[Q:3/4=80] .[^D=A^d])(D[^Fd])(d[^f^d'])(d' |!8va(! .[_g'_g'']2)!8va)! .[_E_G=A]2 .[GA_g]2 | %299
!>(! .[_EB=f]2 .[B,B]2 .[EG=ce]2 | .[DFBd]2 .[DF]2 .[EF=A=c]2 | %301
 .[DFB]2!>)![K:bass]!pp! .[F,B,]2 .[G,B,E]2 |[Q:3/4=78] .[F,B,D]2 .F,2[Q:3/4=76] .[E,=A,=C]2 | %303
[K:treble][Q:3/4=72] !>![B,B]6- |[Q:3/4=70] [B,B]2 .[Bb]2!8va(! .[bb']2!8va)! | %305
[Q:3/4=68] !>![B,B]6- |[Q:3/4=64]!<(! [B,B]2[Q:3/4=60] .[Bb]2[Q:3/4=40]!8va(! .[bb']2!8va)! | %307
[K:bass][Q:3/4=84] .[E,E].[E,E].[E,E].[E,E]!<)! !>![E,E]2 | %308
!f! !wedge![F,CEF]2[K:treble] ([Fcef][Ee][FB=df][Gg]) | %309
!mf!!<(! .[G,G].[G,G].[G,G].[G,G]!<)! !>![G,G]2 | %310
!f! !wedge![^G,=D^F^G]2 ([^G=d^f^g][Ff][G^c^eg][=A=a]) | %311
!mf!!<(! .[=A,=A].[A,A].[A,A].[A,A] !>![A,A]2 | %312
 .[_A,_B,F_A_B].[A,B,FAB].[A,B,FAB].[A,B,FAB]!<)!!f! !>![A,B,=DAB]2 | %313
!mf!!<(! .[B,EGB].[B,EGB].[EGB].[EGB] !>![EGB]2!<)! | [A,EA]2[Q:3/4=80] .[EAe]2 .[Fcef]2 | %315
[Q:3/4=76] [GBeg]2!ff![Q:3/4=80]!8va(! .[e'e'']2!8va)! [cec']2 | %316
!8va(! .[c'c'']2!8va)! [Acea]2 .[aa']2 | [GBeg]2 .[gg']2 [FBef]2 | %318
[Q:3/4=78] .[ff']2[Q:3/4=76] [FB=df]2[Q:3/4=72] .[ee']2 | !>![Ee]6 | %320
 (!>![B,B]2 [Cc][B,B][F,F][G,G] | [E,E]6- | [E,E]2) z2 !breath!z2 || %323
"^Più lento"[Q:3/4=36]!p! z6[Q:3/4=46] | z6 | z6 |[Q:3/4=40] z6[Q:3/4=38][Q:3/4=28] | %327
[Q:3/4=42] (B2[Q:3/4=46] F2 G2 |[Q:3/4=42] e4[Q:3/4=46] d2 | d2 G2[Q:3/4=44] A2 | %330
[Q:3/4=36] B6-[Q:3/4=46] |[Q:3/4=48] B6- | B2)[Q:3/4=48]!>(! z2 z2 | z6[Q:3/4=46] | %334
[Q:3/4=40] z6[Q:3/4=34][Q:3/4=20]!>)! |[Q:3/4=42] (d2[Q:3/4=46] =A2[Q:3/4=44] B2 | %336
[Q:3/4=40] g4[Q:3/4=46] f2 | f2 B2 =c2 |[Q:3/4=42] e2[Q:3/4=48]!pp! d4- |[Q:3/4=48] d6- | %340
 d2)!>(! z2 z2 | z6 |[Q:3/4=40] z6[Q:3/4=35][Q:3/4=20]!>)! | %343
[Q:3/4=42] (B2[Q:3/4=46] F2[Q:3/4=42] G2 |[Q:3/4=40] e4[Q:3/4=46] d2 | %345
[Q:3/4=42] d2[Q:3/4=46] G2 A2 |[Q:3/4=40] B6-[Q:3/4=48] |[Q:3/4=48] B6- | B2)!>(! z2 z2 | %349
[Q:3/4=46] z6[Q:3/4=48] |[Q:3/4=40] z6[Q:3/4=35][Q:3/4=20]!>)! |[Q:3/4=42] (B2[Q:3/4=46] =A2 B2 | %352
[Q:3/4=42] =B4[Q:3/4=46] =c2 |[Q:3/4=42] =d2[Q:3/4=46] _B2[Q:3/4=42] =g2 | f6)[Q:3/4=46] | %355
[Q:3/4=40]({B=c} B2[Q:3/4=46][Q:3/4=46] =A2 B2 |[Q:3/4=42]!p!"_cresc." =B4[Q:3/4=46] =c2 | %357
[Q:3/4=42] _d2[Q:3/4=40] _B2[Q:3/4=32] _g2 |!f![Q:3/4=38] f2[Q:3/4=42] e2[Q:3/4=46] d2 | %359
[Q:3/4=40] c6-[Q:3/4=48] | c6- |[Q:3/4=46] c6- |[Q:3/4=40] c6)[Q:3/4=35][Q:3/4=20] | %363
!p![Q:3/4=42] (B2[Q:3/4=46] F2 G2 |[Q:3/4=42] e4[Q:3/4=46] d2 |[Q:3/4=40] d2[Q:3/4=44] G2 A2 | %366
[Q:3/4=42] B6-[Q:3/4=46] |[Q:3/4=48] B6- | B2)!>(! z2 z2 | z6 | %370
[Q:3/4=40] z6[Q:3/4=35][Q:3/4=20]!>)! |!p![Q:3/4=42] (c2[Q:3/4=46] =G2 A2 | %372
[Q:3/4=40] _f4[Q:3/4=44] e2 |[Q:3/4=42] e2[Q:3/4=46] A2 B2 |[Q:3/4=46] d2[Q:3/4=46]!pp! c4- | %375
[Q:3/4=48] c6- | c2)[Q:3/4=49]!>(! z2 z2 | z6[Q:3/4=48] |[Q:3/4=40] z6[Q:3/4=35]!>)! | %379
[Q:3/4=30] z2!p![Q:3/4=46]!<(! (A2 B2!<)! |!p![Q:3/4=40]!>(! G4 E2!>)![Q:3/4=46] | %381
[Q:3/4=40] .D2)!p![Q:3/4=46]!<(! (A2 B2!<)! |!p![Q:3/4=38]!>(! G4 E2!>)![Q:3/4=46] | %383
!p![Q:3/4=40] .D2)[Q:3/4=46]!<(! (.A2 .B2 |[Q:3/4=48] .c2 .=c2 .d2 | %385
[Q:3/4=38] .=d2!<)!!p![Q:3/4=32]!>(! .e2)[Q:3/4=30] (F2 |[Q:3/4=25] G2)!>)! |: %387
[Q:3/4=42] z2[Q:3/4=44] z2 |!p![Q:3/4=46] ([GA]6[Q:3/4=44] | [FA]6)[Q:3/4=46] | ([GA]6[Q:3/4=44] | %391
 A4-[Q:3/4=44] Af | [=Af]4[Q:3/4=42] A2 |[Q:3/4=40] B4 [Fd]2[Q:3/4=42] | %394
[Q:3/4=46] [E=G]6[Q:3/4=42] |[Q:3/4=38] [EA]4)[Q:3/4=44] ([FA]2[Q:3/4=42] | %396
!p![Q:3/4=46] [GA]6[Q:3/4=44] | [FA]6)[Q:3/4=46] | ([GA]6[Q:3/4=44] |[Q:3/4=42] A6[Q:3/4=45] | %400
[Q:3/4=40] A4 G2[Q:3/4=44] |[Q:3/4=39] G4[Q:3/4=43] d2 |[Q:3/4=32]!<(! d6[Q:3/4=36][Q:3/4=32] | %403
[Q:3/4=28] A4[Q:3/4=20] =A2!<)![Q:3/4=24][Q:3/4=12] |!p![Q:3/4=40] (B2)[Q:3/4=44] F2 G2 | %405
[Q:3/4=40] e4[Q:3/4=42] d2 |[Q:3/4=40] d2[Q:3/4=42] G2 A2 |[Q:3/4=40] B6-[Q:3/4=44] | %408
[Q:3/4=46] B6- | B2)[Q:3/4=48]!>(! z2 z2 | z6 |[Q:3/4=40] z6[Q:3/4=35][Q:3/4=20]!>)! | %412
!p![Q:3/4=40] (c2[Q:3/4=42] =G2 A2 |[Q:3/4=38] _f4[Q:3/4=40] e2 |[Q:3/4=40] e2[Q:3/4=42] A2 B2 | %415
[Q:3/4=40] d2[Q:3/4=42] c4- | c6-[Q:3/4=46] | c2)[Q:3/4=48]!pp!!>(! z2 z2 | z6 | %419
[Q:3/4=40] z6[Q:3/4=35][Q:3/4=32]!>)! |[Q:3/4=28]!pp! z2!p![Q:3/4=40]!<(! (A2 B2!<)! | %421
!p![Q:3/4=36]!>(! G4[Q:3/4=44] E2!>)![Q:3/4=42] |[Q:3/4=42] .D2)!p![Q:3/4=44]!<(! (A2 B2!<)! | %423
!p![Q:3/4=36]!>(! G4[Q:3/4=44] E2!>)![Q:3/4=42] |!p![Q:3/4=38] .D2)[Q:3/4=42]!<(! (.A2 .B2 | %425
[Q:3/4=44] .c2[Q:3/4=46] .=c2 .d2 |1[Q:3/4=38] .=d2!<)!!p![Q:3/4=32] .e2)[Q:3/4=30] (F2 | %427
[Q:3/4=25] G2) :|2[Q:3/4=38]!p!!<(! (.=d2!<)![Q:3/4=40] .e3)!p! (d || %429
[Q:3/4=46]!p!!<(! =d2!<)! e3)!p! ([__E__e] | %430
[Q:3/4=50]!p!"_cresc." [__E__e]2 [_D_d]3)"^cresc." ([=C=c] |[Q:3/4=60] [=C=c]2 [_C_c]3) ([B,B] | %432
[Q:3/4=70] [B,B]2 [=A,=A]3) ([_A,_A] |[Q:3/4=82] [A,A]2 [G,G]2)[K:bass] ([B,,B,]2 || %434
"^Tempo Ⅰ"!f![Q:3/4=84]!<(! .[E,E]).[E,E].[E,E].[E,E] !>![E,E]2!<)! | %435
!f! !wedge![F,CEF]2[K:treble] ([Fcef][Ee][FB=df][Gg]) | %436
!mf!!<(! .[G,G].[G,G].[G,G].[G,G] !>![G,G]2!<)! | %437
!f! !wedge![^G,=D^F^G]2 ([^G=d^f^g][Ff][G^c^eg][=A=a]) | %438
!mf!!<(! .[=A,=A].[A,A].[A,A].[A,A] !>![A,A]2 | %439
 .[_A,_B,F_A_B].[A,B,FAB].[A,B,FAB].[A,B,FAB]!<)!!f! !>![A,B,=DAB]2 | %440
!mf!!<(! .[B,EGB].[B,EGB].[EGB].[EGB] !>![EGB]2!<)! |!f!!>(! ([B,EB]2!>)! [A,EA]2)!f! ([G,=A,EG]2 | %442
!<(! [G,B,D])(D[Gd])(G[Bg])(B | [db])(d[gd'])(g[bg'])(b-!<)! | %444
!f!!>(! [bd'b']2!>)! [ad'a']2)[Q:3/4=83] (.[dad']2 | %445
!mf!!>(! [dad'-]2 [gd'g']2)!>)!!p![Q:3/4=82] (.[DAd]2 | [DAd-]2 [Gdg]2)[Q:3/4=81] (.[DAd]2 | %447
 [DAd-]2 [Gdg]2)[Q:3/4=80] (.[Dd]2 |[Q:3/4=60]!>(! [Dd]6 | [B,B]6-)!>)! |[Q:3/4=76] [B,B]6- | %451
[Q:3/4=78] [B,B]6- |[Q:3/4=80] [B,B]6 |[Q:3/4=82] z6 | %454
[K:bass]!mf![Q:3/4=84]!<(! .[E,E].[E,E].[E,E].[E,E] !>![E,E]2!<)! | %455
!f! !wedge![F,CEF]2[K:treble] ([Fcef][Ee][FB=df][Gg]) | %456
!mf!!<(! .[G,G].[G,G].[G,G].[G,G] !>![G,G]2!<)! | %457
!f! !wedge![^G,=D^F^G]2 ([^G=d^f^g][Ff][G^c^eg][=A=a]) | %458
!mf!!<(! .[=A,=A].[A,A].[A,A].[A,A] !>![A,A]2!<)! | %459
!f!!<(! .[=B,F=A=B].[B,FAB].[B,FAB].[B,FAB] !>![B,FAB]2 | %460
 .[=C^D=A=c].[CDAc].[CDAc].[CDAc]!<)! !>![CD^Fc]2 | %461
!ff!!>(! ([=E^F=A=e]2!>)! [=D=G=d]2)[K:bass]!f! (!>![=D,=D]2 | %462
!<(! [^C,^C])[K:treble](^C[^F^c])(F[=A^f])(A | [^c=a])(c[^f^c'])(f[a^f'])(a-!<)! | %464
!ff!!>(! [a^c'=a']2!>)! [^gc'^g']2)[Q:3/4=83] (.[^cgc']2 | %465
!mf!!>(! [^c^g^c'-]2 [^fc'^f']2)!>)!!p![Q:3/4=82] (.[^C^Gc]2 | %466
 [^C^G^c-]2 [^Fc^f]2)[Q:3/4=81] (.[CGc]2 | [^C^G^c-]2 [^Fc^f]2)!f![Q:3/4=80]!>(! (!>![Cc]2-!>)! | %468
 [Cc]2!mp![Q:3/4=78] [=D=d][^C^c][Q:3/4=76][^G,^G][=A,=A] |[Q:3/4=60] !>![^F,^F]6) || %470
[Q:3/4=84] !wedge![=D=d]2!p! ([=A,D]!<(![A,D][^G,^C][A,D] | [_B,_E][=B,=E][=CF][^C^F][=D=G][_E_A] | %472
 [=E=A][F_B][^F=B][=G=c][^G^c][A=d] | %473
[Q:3/4=80] [=A=d]2!<)![Q:3/4=76] [_B_e]2)[Q:3/4=72] .[eb_e']2 | %474
[Q:3/4=68]!8va(! .[e'e'']2!8va)!!p![Q:3/4=84] ([B,E]!<(![B,E][=A,=D][B,E] | %475
 [=B,=E][=CF][^C^F][=D=G][_E_A][=E=A] | [=F_B][^F=B][=G=c][^G^c][=A=d][_B_e]!<)! | %477
[Q:3/4=80] [Be]2[Q:3/4=76] [=B=e]2)[Q:3/4=72] .[e=b=e']2 | %478
[Q:3/4=68]!8va(! .[=e'=e'']2!8va)!!mp![Q:3/4=80] ([=E=e][Ee][^D^d][Ee]) | %479
 (!>![^E^e].[^F^f]).[=G=g].[Gg].[Gg].[Gg] | (!>![=G=g].[^F^f]).[Ff].[Ff].[^E^e].[Ff] | %481
 (!>![=G=g].[^G^g])!<(!.[=A=a].[Aa][Q:3/4=78].[Aa].[Aa] | %482
[Q:3/4=77] (!>![=A=a].[^G^g])[Q:3/4=76].[Gg].[Gg][Q:3/4=75].[^^F^^f][Q:3/4=74].[Gg]!<)! | %483
!f![Q:3/4=70] [_A_d_a]2[Q:3/4=35][Q:3/4=76] ([Ada][=G=g][Ada][Bb] | [Ada]2 .[aa']2) [Gdg]2 | %485
 [Gcg]2[Q:3/4=60][Q:3/4=76] ([Gcg][Ff][Gcg][Aa] | [^F=B^f]2 .[gg']2) [=EB=e]2 | %487
 [=E=A=e]2[Q:3/4=60][Q:3/4=76] ([EAe][^D^d][EAe][^F^f] | %488
[Q:3/4=80] .[^D=A^d])(D[^Fd])(d[^f^d'])(d' |!8va(! .[_g'_g'']2)!8va)! .[_E_G=A]2 .[GA_g]2 | %490
!>(! .[_EB=f]2 .[B,B]2 .[EG=ce]2 | .[DFBd]2 .[DF]2 .[EF=A=c]2 | %492
 .[DFB]2!>)![K:bass]!pp! .[F,B,]2 .[G,B,E]2 |[Q:3/4=76] .[F,B,D]2 .F,2[Q:3/4=72] .[E,=A,=C]2 | %494
[K:treble][Q:3/4=72] !>![B,B]6- | [B,B]2[Q:3/4=70] .[Bb]2!8va(! .[bb']2!8va)! | %496
[Q:3/4=68] !>![B,B]6- |[Q:3/4=64]!<(! [B,B]2[Q:3/4=60] .[Bb]2[Q:3/4=40]!8va(! .[bb']2!8va)! | %498
[K:bass][Q:3/4=84] .[E,E].[E,E].[E,E].[E,E] !>![E,E]2!<)! | %499
!f! !wedge![F,CEF]2[K:treble] ([Fcef][Ee][FB=df][Gg]) | %500
!mf!!<(! .[G,G].[G,G].[G,G].[G,G] !>![G,G]2 | %501
!f! !wedge![^G,=D^F^G]2!<)![K:treble] ([^G=d^f^g][Ff][G^c^eg][=A=a]) | %502
!mf!!<(! .[=A,=A].[A,A].[A,A].[A,A] !>![A,A]2 | %503
 .[=B,F=A=B].[B,FAB].[B,FAB].[B,FAB]!<)! !>![B,FAB]2 | %504
!f!!<(! .[=C_E=A=c].[CEAc].[CEAc].[CEAc] !>![CE^Fc]2!<)! |!ff! [E^F=Ae]2 .[e^f=ae']2 (!>![=DF=d]2 | %506
 [^C^F^c]2) .[^f^f']2 [=D^F=d]2 | .[=d=d']2 [=D^F^G=B]2 .[B=b]2 | [^C^F=A]2 .[=A=a]2 [CF^G]2 | %509
 .[^G^g]2 [^C^EG]2 ([^cg^c']2 | !>![^c^g^c']2 [^f^f']2)!p! ([^C^Gc]2 | %511
 !>![^C^G^c]2 [^F^f]2)!mp!"^dim." ([_D_A_d]2 | !>![Dd]2 [Gg]2) ([DAd]2 | !>![Dd]2 [Gg]2) ([DAd]2 | %514
 !>![Dd]2 [Gg]2)[Q:3/4=70]"^dim." ([DAd]2 | !>![Dd]2 [Gg]2)[Q:3/4=60] ([DAd]2 | %516
[Q:3/4=60] !>![Dd]2 [Gg]2)[Q:3/4=50] ([DAd]2 | %517
[Q:3/4=46] !>![Dd]2[Q:3/4=38] [Gg]2)[Q:3/4=20] [DAd]2 |"^lento"[Q:3/4=42]!pp! (B2[Q:3/4=44] F2 G2 | %519
[Q:3/4=40] e4[Q:3/4=42] d2 |[Q:3/4=42] d2[Q:3/4=44]!<(! G2 A2 |[Q:3/4=42] B6-!<)![Q:3/4=44] | %522
 B6-[Q:3/4=46] | B2)[Q:3/4=44] z2 z2 | z6[Q:3/4=42] |[Q:3/4=40] z6[Q:3/4=35][Q:3/4=32] | %526
[Q:3/4=38] z6 |[Q:3/4=34] z6 |!ppp![Q:3/4=38] [G,DGB]6- | [G,DGB]6- | [G,DGB]6- | [G,DGB]6- | %532
 [G,DGB]2 z2 z2 |] %533
[K:Db][M:4/4][K:treble][K:bass]"^MARCHE FUNÈBRE""^Lento"!p![Q:1/4=60] (B,2 B,>B, B,4) | %534
 (B,2 B,>B, B,4) | (B,2 B,>B, B,2 D>C |{/D} C>B, B,>B, B,4) | %537
 ([B,D]2 [B,D]>[B,D] [B,D]2 [DF]>[CE] |{/F} [CE]>[B,D] [B,D]>[B,D] [B,D]4) | %539
[K:treble]!p!!>(! (BA{/A}G>F F2!>)!!p! D2) |!p!!>(! (BA{/A}G>F F2!>)! D2) | %541
[K:bass]!p! (B,2 B,>B, B,2 D>C |{/D} C>B, B,>B, B,4) | %543
[K:treble] ([Bb]!>(![Aa][Gg]>[Ff] [Ff]2!mp! [Dd]2)!>)! | ([Bb]!>(![Aa][Gg]>[Ff] [Ff]2 [Dd]2)!>)! | %545
!mp! ([B,B]2 [B,B]>[B,B] [B,B]2 [Dd]>[Cc] | [Cc]>[B,B][B,B][B,B] [B,B]2)!mp! (!>![Cc]2 || %547
!f! [DFd]2)!<(! ([Fdf]>[Gg] [Ada]>[Bb] [cac']>[dd']!<)! | %548
!>(! [fa-c'-f']4 [eac'e']3) z/!>)! ([Gceg]/ | [Fcef]2) ([FBdf]>[=G=g] [=Adf=a]>[Bb] [cfc']>[dd'] | %550
 !arpeggio![B=e=gd'] x x2 [cfc']2) z2 |!f! ([_G,_A,CA]2 [G,A,CA]2 [F,A]2) z2 | %552
[K:bass] ([E,=A,F]2 [E,A,F]2 B,4) |!mp! (B,2!p! B,>B, B,2 D>C | %554
{/D} C>B, B,>B, B,2)!ff! ([_F,=G,D]>!<(![_G,CE] | %555
 [=F,D=F]2)[K:treble] ([Fdf]>[Gg] [Ada]>[Bb] [cac']>[dd']!<)! | %556
!>(! [fa-c'-f']4 [eac'e']3)!>)! z/ ([Gceg]/ | %557
!mf! [Fcef]2) ([FBdf]>[=G=g] [=Adf=a]>[Bb] [cfc']>[dd'] | !arpeggio![B=e=gd'] x x2 [cfc']2) z2 | %559
 ([_G,_A,CA]2 [G,A,CA]2 [F,A]2) z2 |[K:bass] ([E,=A,F]2 [E,A,F]2 B,4) | %561
!mp! (B,2!p! B,>B, B,2[Q:1/4=59] D>C | %562
[Q:1/4=58]{/D} C>B,[Q:1/4=57] B,>[Q:1/4=56]B,[Q:1/4=55] B,2)[Q:1/4=54] z2 |: %563
[K:treble]!pp![Q:1/4=60] (f4 gfed | c2 b2 a4) | (g4 agfe | d2 d'2 a4) | (f4 gfe=d | %568
 Pe=def g)[Q:1/4=58](Bf[Q:1/4=56]e | %569
[Q:1/4=50]{c_d} !trill(!Td3[Q:1/4=60] c/d/[Q:1/4=55]{/c} b[Q:1/4=50][Q:1/4=60]agA | e4 d2) z2 :: %571
!pp! (c4 dcBA |"_cresc." =G2 f2 e4) | (d4 edcB | =A2 g2 f4) | (f4 gfed | d2 c2) z (c{/e}d>c | %577
 !>!c2 B2) z (c[Q:1/4=58]{/e}d>!p![Q:1/4=54]c | %578
[Q:1/4=58]!<(! c2[Q:1/4=56] f2!<)!!mp![Q:1/4=55]!>(! g2!>)![Q:1/4=50] _A2)[Q:1/4=48] | %579
[Q:1/4=60]!pp! (f4 gfed | c2 b2 a4) | (g4 agfe | d2 d'2 a4) | (f4 gfe=d | %584
 Pe=def g)[Q:1/4=58](Bf[Q:1/4=56]e | %585
[Q:1/4=50]{c_d} !trill(!Td3[Q:1/4=60] c/d/[Q:1/4=55]{/c} b[Q:1/4=50][Q:1/4=60]agA |1 e4 d2) z2 :|2 %587
[Q:1/4=58] (e4[Q:1/4=54] d2) z2[Q:1/4=56] ||[K:bass]!p! (B,2 B,>B, B,4) | %589
"_cresc." (B,2 B,>B, B,4) | (B,2 B,>B, B,2 D>C |{/D} C>B, B,>B, B,4) | %592
 ([B,D]2 [B,D]>[B,D] [B,D]2 [DF]>[CE] |{/F} [CE]>[B,D] [B,D]>[B,D] [B,D]4) | %594
[K:treble]!mp!!>(! (BA{/A}G>F F2!>)!!p! D2) |!mp!!>(! (BA{/A}G>F F2!>)! D2) | %596
[K:bass]!p! (B,2 B,>B, B,2 D>C |{/D} C>B, B,>B, B,4) | %598
[K:treble] ([Bb]!>(![Aa][Gg]>[Ff] [Ff]2!>)!!mp! [Dd]2) | ([Bb]!>(![Aa][Gg]>[Ff] [Ff]2!>)! [Dd]2) | %600
!mp! ([B,B]2 [B,B]>[B,B] [B,B]2 [Dd]>[Cc] | [Cc]>[B,B][B,B][B,B] [B,B]2)!mp! (!>![Cc]2 | %602
!f! [DFd]2)!<(! ([Fdf]>[Gg] [Ada]>[Bb] [cac']>[dd']!<)! | %603
!>(! [fa-c'-f']4 [eac'e']3) z/!>)! ([Gceg]/ | [Fcef]2) ([FBdf]>[=G=g] [=Adf=a]>[Bb] [cfc']>[dd'] | %605
 !arpeggio![B=e=gd'] x x2 [cfc']2) z2 |!f! ([_G,_A,CA]2 [G,A,CA]2 [F,A]2) z2 | %607
[K:bass] ([E,=A,F]2 [E,A,F]2 B,4) |!mp! (B,2!p! B,>B, B,2 D>C | %609
{/D} C>B, B,>B, B,2)!ff! ([_F,=G,D]>!<(![_G,CE] | %610
 [=F,D=F]2)[K:treble] ([Fdf]>[Gg] [Ada]>[Bb] [cac']>[dd']!<)! | %611
!ff!!>(! [fa-c'-f']4 [eac'e']3) z/!>)! ([Gceg]/ | %612
!mf! [Fcef]2) ([FBdf]>[=G=g] [=Adf=a]>[Bb] [cfc']>[dd'] | !arpeggio![B=e=gd'] x x2 [cfc']2) z2 | %614
 ([_G,_A,CA]2 [G,A,CA]2 [F,A]2) z2 |[K:bass] ([E,=A,F]2 [E,A,F]2 B,4) | %616
!mp![Q:1/4=56] (B,2!p! B,>B,[Q:1/4=52] B,2 D>C | %617
[Q:1/4=48]{/D} C>[Q:1/4=44]B,[Q:1/4=40] B,>[Q:1/4=36]B,[Q:1/4=32] !fermata!B,2) x2 |] %618
[M:2/2][K:treble][K:bass]"^FINALE""^Presto"[Q:1/2=120]!p! (3F,=G,B, (3D=E,G, (3F,G,B, (3DE,G, | %619
 (3=G,=A,C (3_E^F,A, (3G,A,C (3EF,A, |[K:treble] (3B,CE (3_G=A,C (3DEG (3=ACE | %621
 (3DEG (3=ACE (3GBc (3eFA | (3Bdg (3fcd (3=ecd (3=ABG | (3=EFB (3^G=Ad (3ABd (3=Bcf | %624
 (3_A_c_f (3e_Bc (3=dBc (3=GA_F | (3=DEA (3=EF_c (3F_Gc (3=AB_e | %626
 (3_dFB (3^C=E=A (3=c_E_A (3=B,=D=G | (3_c__EG (3B,DG (3BGc (3=cd_e | %628
 (3=e=Gc (3_E_G_c (3=dFB (3^C=E=A | (3=c=E_A (3=B,=D=G (3=B^F^c (3=d_e=e | %630
!<(! (3=f=A_e (3=ef_g (3fBd (3ef^f | (3=g=B=f (3^fga (3gc_e (3fga!<)! | %632
!mp! (3ec=f (3eAd (3cE_B (3ACF | (3EA,D[K:bass] (3C=G,A, (3C^F,=D (3C^E,F, | %634
 (3=G,=A,=B,[K:treble] (3C=DE (3_A,_B,=B, (3C_DE | (3=A,_B,C (3DEF (3B,=B,C (3DEF | %636
 (3CD=D (3EFG (3__B,_D=D (3EFG | (3__BG_F (3__EFG (3__B,D__E (3_F=FG | %638
 (3__BA=G (3_GEC (3GEC (3_B,__B,A, |[K:bass] (3=G,A,__B, (3F,_G,A, (3=E,F,G, (3=D,_E,F, | %640
 (3=G,,A,,B,, (3C,_D,E, (3F,_G,=G, (3A,F,B, | (3A,FE (3DCB, (3A,F,_G, (3A,F,B, | %642
 (3A,E,F, (3G,E,B, (3A,D,E, (3F,D,B, | (3A,C,D, (3E,C,F, (3E,B,,F, (3E,A,,B,, | %644
 (3A,,D,E, (3F,G,A,[K:treble] (3B,CD (3EFG | (3Afe (3dcB (3AFG (3AFB | (3AEF (3GEB (3ADE (3FDB | %647
 (3ACD (3ECF (3EB,F (3EA,F | (3GFE (3DCB, (3=A,FC (3EDB, | (3=A,FC (3EDB, (3A,FC (3EDB, | %650
 (3_A=GF (3E=DC (3=B,GD (3FEC | (3=B,=G=D (3FEC (3B,GD (3FEC | (3_dc_B (3A=GF (3B=EG (3DEC | %653
 (3dcB (3A=GF (3B=EG (3DEC | (3B=E=G (3DEC (3GDE (3CEB, | %655
 (3=EB,D[K:bass] (3=A,B,_A, (3DA,B, (3=G,B,_G, | (3F,=G,B, (3D=E,G, (3F,G,B, (3DE,G, | %657
 (3=G,=A,C (3_E^F,A, (3G,A,C (3EF,A, |[K:treble] (3B,CE (3_G=A,C (3DEG (3=ACE | %659
 (3DEG (3=ACE (3GBc (3eFA | (3Bdg (3fcd (3=ecd (3=ABG | (3=EFB (3^G=Ad (3ABd (3=Bcf | %662
 (3_A_c_f (3e_Bc (3=dBc (3=GA_F | (3=DEA (3=E=F_c (3F_Gc (3=AB_e | (3_dc_c (3B=Af (3e=d_d (3=cBg | %665
 (3fe=d (3_dc=a (3cdb (3=deb | (3c'b_a (3gf=e (3c'ba (3gfe | (3gf=e (3_e=d_d (3e=Bc (3d=A_B | %668
 (3c=G_A (3_c_Ge (3BFG (3=A=E^c | (3^G^D=E (3=G=D=B (3^F^CD (3=F=C=A | %670
 (3=d=A_B (3_d_Af (3c=GA (3_c_Ge | (3BFG (3=A=E^c (3^G^DE (3=G=D=B | %672
 (3=e=Bc (3_e_B=g (3=d=AB (3_d_Af | (3c=GA (3_c_Ge (3BFe (3BFd | (3GF=E (3_EDC (3GFE (3DCB, | %675
 (3GFE (3DC_C (3GFE (3DCB, |[K:bass] (3=A,B,=C (3EDA, (3CB,F, (3_A,G,F, | %677
 (3E,F,G, (3B,A,G, (3F,D,E, (3F,=E,F, | (3G,F,=E, (3_E,D,C, (3G,F,E, (3D,C,B,, | %679
 (3G,F,E, (3D,C,_C, (3G,F,E, (3D,C,B,, | (3=A,,B,,_C, (3D,E,F, (3G,_A,B, (3_CDE | %681
 (3F=ED (3=CB,G, (3F,=E,D, (3C,B,,G,, | (3F,,B,,^G,, (3=A,,D,A,, (3B,,_E,=B,, (3C,F,C, | %683
 (3D,G,=D, (3E,=A,F, (3G,_DA,[K:treble] (3CGF | (3(=A,DA, (3CGF (3A,DA, (3CGF | %685
 (3CGF (3CGF (3CGF (3B,GF | (3DF,E (3FED (3B,F,C (3DCB, | (3DF,E (3FED (3B,F,C (3DCB,) | %688
[K:bass]!>(! (3(E,F,B, (3DD,F,) (3(E,F,B, (3DD,F,) | %689
 (3(C,D,F, (3B,B,,D,) (3(C,D,F, (3B,B,,D,)!>)! |[Q:1/2=110] z4!p! (3(C,D,F, (3B,B,,D,) | %691
[Q:1/2=100] z4 (3(C,D,F, (3B,B,,D,) |!ff![Q:1/2=90] z4[K:treble] !>!!fermata![bb']4 |] %693
V:2
!f! ([D,,D,]7 [=E,,,=E,,] |!ped! [=E,,,=E,,]8) | x8 [F,,,F,,]8- | [F,,,F,,]8!ped-up! |: %4
"^Doppio movimento"!ped! z!p! (F,!<(![D,B,D]) z z (F,[D,B,D]) z!ped-up! | %5
!ped! z (F,[D,B,D]) z z (F,[D,B,D]) z!<)!!ped-up! | %6
!mp!!ped! z (F,[D,B,D]) z z (F,[D,B,D]) z!ped-up! | %7
!ped! z (F,[D,B,D]) z z (F,[D,B,D])!p! z!ped-up! |!p!!ped! (B,,F,[B,D]F, B,,F,[B,D]F,) | %9
 (B,,F,[B,D]F, B,,F,[B,D]F,) | (B,,F,[B,D]F, B,,F,[B,D]F,)!ped-up! | %11
!p!!ped! C,G,[=A,E]G, C,G,[A,E]G, |!p! C,G,[=A,E]G, C,G,[A,E]G, | C,G,[=A,E]G, C,G,[A,E]G, | %14
 C,G,[=A,E]G, C,G,[A,E]G,!ped-up! |!ped! D,F,[=A,F]F,!ped-up!!ped! D,F,[A,F]F,!ped-up! | %16
!mf!!ped! =E,D=GE,!ped-up!!ped! F,C=AF,!ped-up! | %17
!p!!ped! =A,,_G,EA,,!ped-up!!ped! B,,F,DB,,!ped-up! | %18
!mf!!ped! =E,D=GE,!ped-up!!ped! F,C=AF,!ped-up! | %19
!p!!ped! =A,,_G,EA,,!ped-up!!ped! B,,F,DB,,!ped-up! | %20
!mf!!ped! (=G,,!>(!C,D,B,) (G,,C,D,B,)!ped-up!!>)! | %21
!pp!!ped! (=G,,C,D,B,)!ped-up!!ped! (=A,,=D,E,C)!ped-up! | %22
!ped! (=B,,=E,F,=D)!ped-up!!ped! (C,^F,=G,_E)!ped-up! | %23
!ped! (_B,,=F,_G,E)!ped-up!!ped! (=A,,=E,F,_E)!ped-up! |!mf!!ped! B,,F,B,F,, B,,F,B,F,,!ped-up! | %25
!ped! B,,F,B,F,, B,,F,B,F,,!ped-up! |!ped! B,,F,B,F,, B,,F,DD,!ped-up! | %27
!mf!!ped! C,G,EC, G,=A,EC,!ped-up! |!ped! E,=A,EC, =G,A,EC,!ped-up! | %29
!ped! E,=A,EC, =G,A,EC,!ped-up! |!ped! E,=A,EC, =G,A,EC,!ped-up! |!ped! F,=A,FD, B,CFD,!ped-up! | %32
!ped! =E,D=GE,!ped-up!!ped! F,C=AF,!ped-up! |!ped! =A,,_G,EA,,!ped-up!!ped! B,,F,DB,,!ped-up! | %34
!mf!!ped!!<(! =E,D=GE,!ped-up!!ped! F,C=AF,!ped-up! | %35
!ped! =D,_CFD,!ped-up!!ped! E,B,_G!f!E,!<)!!ped-up! | %36
!ped! (E,,B,,B,B,,)!ped-up!!ped! (F,,B,,B,B,,)!ped-up! | %37
!ped! (G,,B,,B,B,,)!ped-up!!ped! (=G,,E,EE,)!ped-up! | .[A,,E,B,]2 .[A,,E,A,]2 z2 ([B,,,B,,]2 | %39
 [=B,,,=B,,]4 [C,,C,]4) |!ped! x2 [D,,D,]8 | D,4!ped-up! G,,4 | (A,,8- | A,,2 =A,,2 B,,2 _A,,2 | %44
!ped! x D,,8) | D,4!ped-up! G,,4 | (A,,8- | A,,2 =A,,2 (3C,2 B,,2 _A,,2 | %48
!ped! x D,,4) =G,4!ped-up! | _G,4 B,3 A, | [D,A,]4 =G,4 | _G,8!ped!!ped-up!!ped! | %52
 !arpeggio![F,,=A,]4!ped-up! ([=A,,,=A,,]4 | [B,,,B,,]4 [C,,C,]3 [D,,D,] | %54
 [=D,,=D,]4 [E,,E,]3 [F,,F,] | [G,,G,]4 A,,4)!ped! |!mp! (3D,,2 (=G,2 A,2 (3B,2 A,2 A,,2)!ped-up! | %57
!ped! (3D,2 (=G,2 A,2 (3B,2 A,2 A,,2)!ped-up! |!ped! (3E,2 (=G,2 A,2 (3B,2 A,2 A,,2)!ped-up! | %59
!ped! (3_G,2 (=G,2 A,2 (3B,2 A,2 A,,2)!ped-up! |!ped! x .D,,2 (=G,A, B,A,A,A,,)!ped-up! | %61
!ped! .D,2 (=G,A, B,A,A,A,,)!ped-up! |!ped! .E,2 (=G,A, B,A,A,A,,)!ped-up! | %63
!ped!!>(! ._G,2 (=G,A, B,A,A,A,,)!ped-up!!>)! |!p!!ped!"_cresc." x .D,(A,B,A, FA,B,A,)!ped-up! | %65
!ped! .A,,(A,B,A, GA,B,A,)!ped-up! |!ped! .D,(A,B,A, FA,B,A,)!ped-up! | %67
!ped! .A,,(A,B,A, GA,B,A,)!ped-up! |!ped! (=A,,=E,F,C[K:treble] =A,=EFc)!ped-up! | %69
[K:bass]!ped! (B,,=E,F,D[K:treble] B,=EFd)!ped-up! | %70
[K:bass]!mf!!ped! (C,=G,A,_E[K:treble] C=GA_e)!ped-up! | %71
[K:bass]!ped! (=D,=A,B,F[K:treble] =D=AB) z!ped-up! | %72
[K:bass]!ped! (E,,B,,E,B,)!ped-up!!ped! (F,,B,,=D,A,)!ped-up! | %73
!ped! (G,,B,,E,B,)!ped-up!!ped! (=G,,_D,=E,B,)!ped-up! | %74
!ped! (A,,D,F,D)!ped-up!!ped! (B,,D,_G,D)!ped-up! | %75
!ped! (A,,E,A,D)!ped-up!!ped! (G,,C,E,A,)!ped-up! | %76
!ped! (F,,A,,D,A,)!ped-up!!ped! (B,,D,G,D)!ped-up! | %77
!ped! (__B,,D,G,D)!ped-up!!ped!!<(! (A,,E,C)G,,!ped-up!!<)! | %78
!f!!ped! (F,,A,,D,A,)!ped-up!!ped! (B,,D,G,D)!ped-up! | %79
!ped!!>(! (A,,E,A,!>)!D)!ped-up!!mf!!ped! (A,,E,A,C)!ped-up! | %80
 (3[D,A,D]2 .[E,=G,D]2 .[E,G,D]2 (3[E,G,D]2 .[A,C]2[K:treble] .[A,EA]2 | %81
 (3[A,EA]2 .[DA]2 .[E=Gd]2 (3[EGd]2 .[Ac]2 .[Aea]2 | %82
 (3[Aea]2 .[da]2 .[E=Gd]2 (3[EGd]2 .[Ac]2 .[A,EA]2 | %83
 (3[A,EA]2 .[DA]2[K:bass] .[E,=G,D]2 (3[E,G,D]2 .[A,C]2 .[A,,E,A,]2 | %84
 (3[A,,E,A,]2 .[D,A,]2 .[=G,D]2 (3[G,D]2 .[A,C]2[K:treble] .[A,EA]2 | %85
 (3[A,EA]2 .[DA]2 .[=Gd]2 (3[Gd]2 .[Ac]2 .[Aea]2 | %86
 (3[Aea]2 .[da]2 .[=Gd]2 (3[Gd]2 .[Ac]2 .[A,EA]2 | %87
 (3[A,EA]2 .[DA]2[K:bass] .[=G,D]2 (3[G,D]2 .[A,C]2 .[A,,A,]2 | %88
 (3[A,,A,]2 .[=G,,=G,]2 .[G,=A,]2 (3[G,A,]2 .[G,=B,]2 .[G,=D]2 | %89
 (3[=G,=D]2 .[G,C=E]2 .[G,D=A]2 (3[G,DA]2 .[G,D=G]2 .[G,DG]2 | %90
 (3.[=G,=D=G]2 ([D_A]2 .F,2) (3([A,F]2 .=D,2) ([A,D]2 | %91
 (3.=B,,2) ([=D,=B,]2 .A,,2) (3([D,_A,]2 .F,,2) ([F,,,F,,]2 | %92
!ped! (3.[=E,,,=E,,]2) [E,,=E,]2 [E,,E,]2 (3[E,,E,]2!ped-up!!ped! [E,,E,]2 ([E,,E,]2 | %93
 (3!>![=E,,=E,]2!ped-up!!ped! [^D,,^D,]2) ([D,,D,]2 (3!>![D,,D,]2!ped-up!!ped! [E,,E,]2) [E,,E,]2 | %94
 (3[=E,,=E,]2!ped-up!!ped! [E,,E,]2 [E,,E,]2 (3[E,,E,]2!ped-up!!ped! [E,,E,]2 ([E,,E,]2 | %95
 (3!>![=E,,=E,]2!ped-up!!ped! [^D,,^D,]2) ([D,,D,]2 (3!>![D,,D,]2 [E,,E,]2!ped-up! [E,,E,]2 | %96
!ped! (3!>![F,,F,]2) [D,A,D]2 [D,A,D]2 [D,A,D]2!ped-up! z2 | %97
!ped! (3!>![G,,,G,,]2 [D,G,D]2 [D,G,D]2 [D,G,D]2!ped-up! z2 | %98
!ped! (3!>![A,,,A,,]2 [D,A,D]2 [D,A,D]2 [D,A,D]2!ped-up! z2 | %99
!ped! (3!>![B,,,B,,]2 [D,B,D]2 [D,B,D]2 [D,B,D]2!ped-up! z2 |!ff! [E,,,E,,]8- | [E,,,E,,]8 | %102
!ped! [A,,,A,,]8- |1!ped! [A,,,A,,]8-!ped-up! :|2 [A,,,A,,]8 || %105
 ([=A,,,=A,,][^F,,,^F,,]) z!p! ([^G,,,^G,,] [A,,,A,,][F,,,F,,]) z z | %106
 (=A,,,^F,,,) z (^G,,, A,,,F,,,) z2 | (=A,,,^F,,,) z (^G,,, A,,,^F,,) z2 | %108
!<(!!ped! (^F,4 =D,,4!ped-up!!<)! |!p!!>(!!ped! [=G,,=D,=G,]8)!ped-up!!>)! | %110
!pp! ([=D,,=D,]3 [=G,,,=G,,] [G,,,G,,]4) | (=D,,=G,,,) z (=A,,, =B,,,G,,,) z2 | %112
 (=D,,=G,,,) z (=A,,, =B,,,G,,,) z2 | (=D,,^G,,,) z (=A,,, =B,,,G,,,) z2 | %114
 (=D,,^G,,,) z (=A,,, =B,,,G,,,) z2 | (=D,,=B,,,) z (^C,, D,,=B,,) z2 | %116
!<(!!ped! (^G,4!ped-up! =E,,4!<)! |!p!!>(! =E,4)!ped! ^E,4-!ped-up!!>)! |[I:staff -1] [^E,E]8 | %119
[I:staff +1] (^E,4 ^F,4 | ^F,4 =G,4) | %121
!p!!>(! ([=B,,,=B,,][=G,,,=G,,]) z ([=A,,,=A,,] [B,,,B,,][G,,,G,,]) z2 | %122
 ([=C,,=C,][=G,,,=G,,]) z ([C,,C,] [=D,,=D,][G,,,G,,]) z2 | %123
 ([E,,E,][=G,,,=G,,]) z ([=D,,=D,] [E,,E,][_A,,_A,])!>)! z2 | %124
 ([F,,F,][=D,,=D,]) z ([E,,E,]!pp! [F,,F,][D,=D]) z2 | (3:2:2x2 =A,,4 x4 | (3:2:2x2 =B,,4 x4 | %127
 (3(=G,,2 ^C,2!ped-up! =B,2)!ped! (3(^F,,2 =C,2 ^A,2) | %128
!ped! (3(^^F,,2 =E,2 ^C2)!ped-up!!ped! (3(^G,,2 E,2 C2)!ped-up! | %129
!mp!!>(! ([^G,,,^G,,][=E,,,=E,,]) z ([^F,,,^F,,] [G,,,G,,][E,,,E,,]) z2 | %130
 ([_A,,,_A,,][=F,,,=F,,]) z ([=G,,,=G,,] [A,,,A,,][F,,,F,,]) z2 | %131
 ([_B,,,_B,,][=G,,,=G,,]) z ([A,,,A,,] [B,,,B,,][=G,,=G,])!>)! z2 | %132
 ([C,,C,][=A,,,=A,,]) z ([B,,,B,,]!pp! [C,,C,][C,C]) z2 | (3:2:2x2 =B,,4 x4 | (3:2:2x2 ^C,4 x4 | %135
 (3:2:2x2 ^D,4!ped! x4!ped-up! |!ped! (3(=A,,2 ^F,2 _E2)!ped-up!!ped! (3(C,2 F,2 =D2)!ped-up! | %137
!f!!ped! (3(!>![_B,,,_B,,]2 [=D,_B,]2 [=G,=D]2 (3:2:4[B,=G]2 [G,D]2 z !wedge![=D,,,=D,,]!ped-up! | %138
!ped! (3!>![=D,,,=D,,]2) [=D,B,]2 [=G,=D]2 (3[B,=G]2 [G,D]2 [D,B,]2!ped-up! | %139
!ped! (3(!>![B,,B,]2 [F,_D]2 [B,F]2 (3:2:4[DB]2 [B,F]2 z !wedge![_D,,D,]!ped-up! | %140
!ped! (3!>![D,,D,]2) [F,D]2 [B,F]2 (3[DB]2 [B,F]2 [E,D]2!ped-up! | %141
!ped! (3(!>![A,,,A,,]2 [F,C]2 [A,F]2 (3:2:4[CA]2 [A,F]2 z !wedge![C,,,C,,]!ped-up! | %142
!ped! (3!>![C,,,C,,]2) [F,C]2 [A,F]2 (3[CA]2 [A,F]2 [F,C]2!ped-up! | %143
!ped! (3(!>![A,,A,]2 [=E,C]2 [A,=E]2 (3:2:4[CA]2 [A,E]2 z !wedge![C,,C,]!ped-up! | %144
!ped! (3!>![C,,C,]2) [=E,C]2 [A,=E]2 (3[CA]2 [A,E]2 [E,C]2!ped-up! | %145
!ped! (3(!>![=G,,=G,]2 [G,=E]2 [=B,=G]2 (3:2:4[E=B]2 [B,G]2 z !wedge![=B,,,=B,,]!ped-up! | %146
!ped! (3!>![=B,,,=B,,]2) [=G,=E]2 [=B,=G]2 (3[E=B]2 [B,G]2 [G,E]2!ped-up! | %147
!ped! (3(!>![=G,,=G,]2 [=D,=B,]2 [G,=D]2 (3:2:4[B,=G]2 [G,D]2 z !wedge![=G,,,G,,]!ped-up! | %148
!ped! (3!>![=G,,,=G,,]2) [=D,=B,]2 [=G,=D]2 (3[B,=G]2 [G,D]2 [D,B,]2!ped-up! | %149
!ped! (3!>![^F,,^F,]2 [=D,=A,]2 [F,=D]2 (3[A,^F]2 [F,D]2 [D,A,]2!ped-up! | %150
!ped! (3!>![=F,,=F,]2 [=D,=A,]2 [F,=D]2 (3[A,=F]2 [F,C]2 [D,A,]2!ped-up! | %151
!ped! (3!>![F,,F,]2 [C,=A,]2 [F,C]2 (3:2:4[A,F]2 [F,C]2 z !wedge![F,,,F,,]!ped-up! | %152
!ped! (3!>![F,,,F,,]2 [C,=A,]2 [F,C]2 (3A,2 F,,2 F,,,2!ped-up! | %153
!ped! [E,,,E,,]2 z2 (E,,G,,G,_C,!ped-up! | G,,_C,_CE, C,E,EG, | E,G,G_C[K:treble] G,_C_cE | %156
 _CEeG)[K:bass]!ped-up!!ped! (_F,B,__AD |!ped! E,G,G_C)!ped-up!!ped! (E,,G,,G,_C,!ped-up! | %158
 G,,_C,_CE, C,E,EG, | E,G,G_C[K:treble] G,_C_cE | _CEeG)[K:bass]!ped-up!!ped! (=E,B,=GD) | %161
!ped! (3(F,,2 =C,2) ([D,_G,-]2!ped-up!!ped! (3[C,G,]2 F,,2) ([_E,-B,]2!ped-up! | %162
!ped! (3[E,=A,]2 F,,2) ([D,G,-]2!ped-up!!ped! (3[C,G,]2 F,,2) ([E,-B,]2!ped-up! | %163
!ped! (3[E,=A,]2 F,,2) ([B,E-]2!ped-up!!ped! (3[A,E]2 F,2)[K:treble] ([DG-]2!ped-up! | %164
!ped! (3[CG]2 F,2) ([E-B]2!ped-up!!ped! (3[E=A]2 F,2) ([Be-]2!ped-up! | %165
!ped! [=Ae]2) z2 z4!ped-up! |!ped! !>!F4 !>!F4!ped-up! |!ped! !>!F8!ped-up! | %168
[K:bass]!ped! !>!F,4 !>!F,4!ped-up! ||[K:Bb]!p!!ped! (B,,,2 [B,,-F,]8)!ped-up! | B,8!ped-up!!ped! | %171
 !arpeggio!A,8- | (A,2 ^F,2 =G,2 =F,2 |!<(! B,,8) | B,4!<)!!p! G,4 | %175
!>(! (F,2 ^F,2 (3A,2 G,2 =F,2)!>)! |!p! (F,,2 ^F,,2 (3A,,2 G,,2 =F,,2) | %177
!ped! B,,,2 z2!ped-up!!<(! [_D=E]4 | _E4 G3 F!ped!!<)!!ped-up! |!p! !arpeggio![B,,F,F]4!p! =E4 | %180
!<(! [F,C_EF]4!ped! [E,G,CE]3 x/4!ped-up!!ped! x/4x/4x/4!ped-up! | %181
 !arpeggio![D,A,C^F]4!<)!!p! ([^F,,,^F,,]4 | [G,,,G,,]4 [A,,,A,,]3 [B,,,B,,] | %183
 [=B,,,=B,,]4 [C,,C,]3 [D,,D,] | [E,,E,]4 [F,,F,]4) | %185
!p!!ped! (3B,,,2 (=E,2 F,2 (3G,2 F,2 F,,2)!ped-up! | %186
!ped! (3B,,2 (=E,2 F,2 (3G,2 F,2 F,,2)!ped-up! |!ped! (3C,2 (=E,2 F,2 (3G,2 F,2 F,,2)!ped-up! | %188
!ped! (3_E,2 (=E,2 F,2 (3G,2 F,2 F,,2)!ped-up! |!ped! .B,,,2 (=E,F, G,F,F,F,,)!ped-up! | %190
!ped! .B,,2 (=E,F, G,F,F,!ped-up!F,,) |!ped! .F,,,2 (=E,F, G,F,F,!ped-up!F,,) | %192
!ped! ._E,2 (=E,F, G,F,F,!ped-up!F,,) |!ped! x!pp! .B,,(F,G,F, DF,!ped-up!G,F,) | %194
"_cresc."!ped! .F,,(F,G,F, EF,G,F,) | x!ped-up!!ped! .B,,(F,G,F, DF,G,F,)!ped-up! | %196
!ped! .F,,(F,G,F, EF,G,F,)!ped-up! |!ped! (^F,,^C,D,A, ^F,^CDA)!ped-up! | %198
!ped! (G,,^C,D,B,[K:treble] G,^CDB)!ped-up! |[K:bass]!ped! (A,,=E,F,=C[K:treble] A,=EF=c)!ped-up! | %200
[K:bass]!ped! (=B,,^F,G,D[K:treble] =B,^FG) z!ped-up! | %201
[K:bass]!f!!ped! (C,,G,,C,G,)!ped-up!!ped! (D,,G,,D,G,)!ped-up! | %202
!ped! (E,,G,,C,G,)!ped-up!!ped! (=E,,_B,,_D,G,)!ped-up! | %203
!ped! (F,,C,"^stretto"_E,A,)!ped-up!!ped! (G,,B,,E,B,)!ped-up! | %204
!ped! (A,,C,E,C)!ped-up!!ped! (C,F,A,E)!ped-up! | %205
!ped! [D,B,D]2!ped-up!!ped! [D,B,D]2 [E,B,E]2 [F,B,D]2!ped-up! | %206
!ped! [_G,E]2 [=B,,=B,]2 [C,C]2 [E,E]2!ped-up! | %207
!ped! [D,_B,D]2 [=A,,=A,]2 [B,,B,]2 [=E,,=E,]2!ped-up!!ped!!ped-up! | =E,,2 F,,6!ped! | %209
!f! (3[B,,F,]2 .[=E,B,]2 .[E,B,]2 (3[E,B,]2 [F,A,]2!mf! .[F,CF]2 | %210
 (3[F,CF]2 .[B,F]2[K:treble] .[=EB]2 (3[EB]2 .[FA]2 .[Fcf]2 | %211
 (3[Fcf]2 .[Bf]2 .[=EB]2 (3[EB]2 .[FA]2[K:bass] .[F,CF]2 | %212
 (3[F,CF]2 .[B,F]2 .[=E,B,]2 (3[E,B,]2 .[F,A,]2!p! .[F,,C,F,]2 | %213
!>(! (3[F,,C,F,]2!>)! .[B,,F,]2!pp! .[C,=E,B,]2 (3[C,E,B,]2 .[F,A,]2 .[F,CF]2 | %214
 (3[F,CF]2 .[B,F]2[K:treble] .[C=EB]2 (3[CEB]2 .[FA]2 .[Fcf]2 | %215
 (3[Fcf]2 .[Bf]2 .[C=EB]2 (3[CEB]2 .[FA]2[K:bass] .[F,CF]2 | %216
 (3[F,CF]2 .[B,F]2 .[C,=E,B,]2 (3[C,E,B,]2 .[F,A,]2 .[F,,F,]2 | %217
 (3[F,,F,]2 .[=E,,=E,]2 .[E,^F,]2 (3[E,F,]2 .[E,=B,]2 .[E,B,]2 | %218
 (3[=E,=B,]2 .[E,A,=E]2 .[E,B,^F]2 (3[E,B,F]2 .[E,B,E]2 .[E,B,=DE]2 | %219
 (3.[=E,=B,D=E]2 ([B,=F]2 .D,2) (3([F,D]2 .=B,,2) ([F,B,]2 | %220
!f! (3.^G,,2) ([=B,,^G,]2 .F,,2) (3([B,,=F,]2 .D,,2) ([D,,,D,,]2 | %221
!ped! (3.[^C,,,^C,,]2)!mf!"_cresc." [C,,^C,]2 [C,,C,]2 (3[C,,C,]2!ped-up!!ped! [C,,C,]2 ([C,,C,]2 | %222
 (3!>![_D,,_D,]2!ped-up!!ped! [=C,,=C,]2) ([C,,C,]2 (3!>![C,,C,]2!ped-up!!ped! [D,,D,]2) [D,,D,]2 | %223
 (3[_D,,_D,]2!ped-up!!ped! [D,,D,]2 [D,,D,]2 (3[D,,D,]2!ped-up!!ped! [D,,D,]2 ([D,,D,]2 | %224
 (3!>![_D,,_D,]2!ped-up!!ped! [C,,C,]2) ([C,,C,]2 (3!>![C,,C,]2 [^C,,^C,]2!ped-up! [C,,C,]2 | %225
!ped!!f! (3!>![=D,,=D,]2) [B,,F,B,]2 [B,,F,B,]2 [B,,F,B,]2 z2!ped-up! | %226
!ped! (3!>![E,,,E,,]2 [B,,E,B,]2 [B,,E,B,]2 [B,,E,B,]2 z2!ped-up! | %227
!ped! (3!>![F,,,F,,]2 [B,,F,B,]2 [B,,F,B,]2 [B,,F,B,]2 z2!ped-up! | %228
!ped! (3!>![_G,,,_G,,]2 [B,,E,B,]2 [B,,E,B,]2 (3[B,,E,B,]2 z2!ped-up! ([=G,,,=G,,]2 | %229
 [_A,,,_A,,][F,,,F,,]) z ([G,,,G,,] [A,,,A,,][F,,,F,,]) z2 | %230
"^stretto" ([_A,,,_A,,][F,,,F,,]) z ([G,,,G,,] [A,,,A,,][F,,,F,,]) z2 | %231
 ([_A,,,_A,,][F,,,F,,]) z ([G,,,G,,] [A,,,A,,][F,,,F,,]) z2 | %232
!ped! ([A,,,A,,][^F,,,^F,,]) z!ped-up! ([^G,,,^G,,]!ped! [A,,,A,,][F,,^F,]) z2!ped-up! | %233
!ped! ([_B,,,_B,,][G,,,G,,]) z!ped-up! ([A,,,A,,]!ped! [B,,,B,,][G,,G,]) z2!ped-up! | %234
!ped! ([=B,,,=B,,][B,,=B,]) z2!ped-up!!ped! (3[C,,C,]2 [C,C]2 [^C,^C]2!ped-up! | %235
 !>![D,_B,D]4 !>![E,B,E]4 | !>![_G,B,CE_G]4 !>![F,CEF]4 | !>![B,,B,]4 !>![E,,E,]4 | %238
 !>![B,,,B,,]4 !>![E,,,E,,]4 |!ped! [B,,,B,,]8 |[K:treble] [DFBd]8 | %241
[K:bass] !fermata![B,,,F,,B,,]4!ped-up! x4 |][K:Gb][M:3/4] B,,,2 | %243
 [E,,,E,,]2 [=E,,,=E,,][F,,,F,,] [G,,,G,,]2 | %244
!ped! [A,,,A,,]2 !arpeggio![A,,E,F,C]2!ped-up!!ped! !arpeggio![B,,F,A,=D]2!ped-up! | %245
 [G,,,G,,]2 [=G,,,=G,,][A,,,A,,] [=A,,,=A,,]2 | %246
!ped! [=B,,,=B,,]2 !arpeggio![B,,^F,^G,=D]2!ped-up!!ped! !arpeggio![^C,G,=B,^E]2!ped-up! | %247
 [=A,,,=A,,]2 [=B,,,=B,,][=C,,=C,] [^C,,^C,]2 | [=D,,=D,]2 [_E,,_E,][=E,,=E,] [F,,F,]2 | %249
 [G,,G,]2 [A,,A,][=A,,=A,] [B,,B,]2 |!ped! [C,C]2 [C,,C,]2!ped-up! ([=C,,=C,]2 | %251
!ped! [D,,D,]2) [D,B,]2 [G,D]2 |[K:treble] [B,G]2 [DB]2 [Gd]2 | ([Bg]2!ped-up! [cf]2)!ped! [DFc]2 | %254
 [D-Fc]2 !arpeggio![G,DB]2!ped-up![K:bass]!ped! [D,F,C]2 | %255
 [D,-F,C]2 !arpeggio![G,,D,B,]2!ped-up!!ped! [D,F,C]2 | [D,-F,C]2 !arpeggio![G,,D,B,]2!ped-up! z2 | %257
 z6 | z6 |!pp! ([A,,A,]2 [G,,G,]2 [E,,E,]2 | [G,,G,]2 [F,,F,]2 [D,,D,]2 | %261
 [E,,E,]2 [D,,D,]2 [B,,,B,,]2 | [C,,C,]2 [B,,,B,,]2 [G,,,G,,]2 | %263
 .[E,,,E,,]2) [=E,,,=E,,][F,,,F,,] [G,,,G,,]2 | %264
!ped! [A,,,A,,]2 !arpeggio![A,,E,F,C]2!ped-up!!ped! !arpeggio![B,,F,A,=D]2!ped-up! | %265
 [G,,,G,,]2 [=G,,,=G,,][A,,,A,,] [=A,,,=A,,]2 | %266
!ped! [=B,,,=B,,]2 !arpeggio![B,,^F,^G,=D]2!ped-up!!ped! !arpeggio![^C,G,=B,^E]2!ped-up! | %267
 [=A,,,=A,,]2 [=B,,,=B,,][=C,,=C,] [^C,,^C,]2 | [=D,,=D,]2 [^D,,^D,][=E,,=E,] [F,,F,]2 | %269
 [^F,,^F,]2 [=G,,=G,][^G,,^G,] [=A,,=A,]2 | [=C,^F,=C]2 [=B,,=G,=B,]2 ([=D,,,=D,,]2 | %271
!ped! [^C,,,^C,,]2) [^C,=A,]2 [^F,^C]2 |[K:treble] [=A,^F]2 [^C=A]2 [F^c]2 | %273
 ([=A^f]2!ped-up! [=B^e]2)!ped! [^C^EB]2 | %274
 [^C-^E=B]2 !arpeggio![^F,C=A]2!ped-up![K:bass]!ped! .[^C,^E,=B,]2 | %275
 [^C,-^E,=B,]2 !arpeggio![^F,,C,=A,]2!ped-up!!ped! .[C,E,B,]2 | %276
 [^C,-^E,=B,]2 !arpeggio![^F,,C,=A,]2!ped-up! !>![^C,,C,]2- | %277
 [C,,C,]2 [=D,,=D,][^C,,^C,][^G,,,^G,,][=A,,,=A,,] | !>![^F,,,^F,,]6 || %279
!ped! !wedge![=D,,,=D,,]2 (^F,F,!ped-up!^E,F, | =G,^G,=A,^A,=B,=C | ^C=D^D=E^E^F | %282
 ^F2 =G2)!ped! .[=G,_B,_EG]2 | .[E,,E,]2 (=G,G,!ped-up!^F,G, | ^G,=A,^A,=B,=C^C | =D^D=E^E^F=G | %286
 =G2 ^G2)!ped! .[^G,=B,=EG]2 | .[=E,,=E,]2 [^G,=B,][G,B,]!ped-up![^^F,^A,][G,B,] | %288
 [^^G,^B,].[^A,^C] .[=B,=D].[B,D].[B,D].[B,D] | [=B,=D].[^A,^C].[A,C].[A,C].[^^G,=B,].[A,C] | %290
[K:treble] [=B,=D].[^B,^D].[^C=E].[CE].[CE].[CE] | [^C=E].[^B,^D].[B,D].[B,D].[^^A,^^C].[B,D] | %292
[K:bass]!ped! [_C_D=F]2 [_D,,_D,]2 [CDF]2!ped-up! |!ped! [G,CD_F]2 [G,,,G,,]2 [G,B,DF]2!ped-up! | %294
!ped! [__B,CE]2 [C,,C,]2 [B,CE]2!ped-up! |!ped! [=E,=A,=B,=D]2 [=E,,,=E,,]2 [E,^G,=D]2!ped-up! | %296
!ped! [=G,=A,^C]2 [=A,,,=A,,]2 [G,A,C]2!ped-up! |!ped! [^F,=C]2 [=A,C]2[K:treble] [=A=c]2 | %298
 .[=a=c']2[K:bass] .[=C,=C]2 .[=C,,,=C,,]2!ped-up! | .[_D,,,_D,,]2 .[D,,D,]2 .[E,,,E,,]2 | %300
 .[F,,,F,,]2 .[F,,F,]2 .[F,,,F,,]2 | .[B,,,B,,]2 .[D,,D,]2 .E,,2 | .F,,2 z2 .[F,,,F,,]2 | %303
 [B,,,B,,]2 ([_A,,_A,]2 [F,,F,]2 | [G,,G,]2 [F,,F,]2 [D,,D,]2 | [E,,E,]2 [D,,D,]2 [B,,,B,,]2 | %306
 [C,,C,]2 [B,,,B,,]2 [G,,,G,,]2 | .[E,,,E,,]2) [=E,,,=E,,][F,,,F,,] [G,,,G,,]2 | %308
!ped! [A,,,A,,]2 !arpeggio![A,,E,F,C]2!ped-up!!ped! !arpeggio![B,,F,A,=D]2!ped-up! | %309
 [G,,,G,,]2 [=G,,,=G,,][A,,,A,,] [=A,,,=A,,]2 | %310
!ped! [=B,,,=B,,]2 !arpeggio![B,,^F,^G,=D]2!ped-up!!ped! !arpeggio![^C,G,=B,^E]2!ped-up! | %311
 [=A,,,=A,,]2 [=B,,,=B,,][=C,,=C,] [^C,,^C,]2 | [=D,,=D,]2 [_E,,_E,][=E,,=E,] [F,,F,]2 | %313
 [G,,G,]2 [A,,A,][=A,,=A,] [B,,B,]2 | [C,C]2 .[C,,C,]2 .[A,,,A,,]2 | %315
!ped! [E,G,B,E]2 .[G,,,G,,]2!ped-up!!ped! [E,A,CE]2 | %316
 .[A,,,A,,]2!ped-up!!ped! [F,A,CE]2 .[C,,C,]2!ped-up! | %317
!ped! [G,B,E]2 .[B,,,B,,]2!ped-up!!ped! [F,B,E]2 | %318
 .[B,,,B,,]2!ped-up! [F,A,B,=D]2!ped! .[E,,,E,,]2 | !>![E,,E,]6!ped-up! | %320
 !>![B,,,B,,]2 [C,,C,][B,,,B,,][F,,,F,,][G,,,G,,] | [E,,,E,,]6- | [E,,,E,,]2 z2 z2 || %323
!p!!ped! G,,,2!pp! ([D,G,E]2 [D,G,D]2) | G,,2 ([D,G,E]2 [D,G,D]2) | G,,2 ([D,G,E]2 [D,G,D]2) | %326
 G,,2 ([D,G,E]2 [D,G,D]2)!ped-up! |!ped! G,,2 ([D,G,E]2 [D,G,D]2)!ped-up! | %328
!ped! G,,2 ([D,G,E]2 [D,G,D]2)!ped-up! |!ped! D,,2 ([D,A,E]2 [D,A,D]2)!ped-up! | %330
!ped! G,,2!>(! ([D,G,E]2 [D,G,D]2!ped-up! |!ped! [D,G,D]2 [D,G,C]2 [D,G,B,]2!>)!!ped-up! | %332
!ped! [D,G,B,]2) ([C,D,]2 [B,,D,]2!ped-up! | [B,,D,]2 [C,D,]2 [B,,D,]2 | %334
 [B,,D,]2 [C,D,]2 [B,,D,]2) |!ped! B,,2 ([F,B,G]2 [F,B,F]2)!ped-up! | %336
!ped! B,,2 ([F,B,G]2 [F,B,F]2)!ped-up! |!ped! F,,2 ([F,=CG]2 [F,CF]2)!ped-up! | %338
!ped! B,,2!>(! ([F,B,G]2 [F,B,F]2!ped-up! |!ped! [F,B,F]2 [F,B,E]2 [F,B,D]2!>)!!ped-up! | %340
!ped! [F,B,D]2) ([E,F,]2 [D,F,]2!ped-up! | [D,F,]2 [E,F,]2 [D,F,]2 | [D,F,]2 [E,F,]2 [D,F,]2) | %343
!ped! G,,2 ([D,G,E]2 [D,G,D]2)!ped-up! |!ped! G,,2 ([D,G,E]2 [D,G,D]2)!ped-up! | %345
!ped! D,,2 ([D,A,E]2 [D,A,D]2)!ped-up! |!ped! G,,2!>(! ([D,G,E]2!pp! [D,G,D]2!ped-up! | %347
!ped! [D,G,D]2 [D,G,C]2 [D,G,B,]2!>)!!ped-up! |!ped! [D,G,B,]2) ([C,D,]2 [B,,D,]2!ped-up! | %349
 [B,,D,]2 [C,D,]2 [B,,D,]2 | [B,,D,]2 [C,D,]2 [B,,D,]2) |!ped! F,,2 [F,=D]2 [F,D]2!ped-up! | %352
!ped! F,,2 [F,=A,E]2 [F,A,E]2!ped-up! |!ped! F,,2 [F,B,F]2 [F,_D=E]2!ped-up! | %354
!ped! F,,2 [F,=C_E]2 [F,CE]2!ped-up! |!ped! F,,2 [F,=D]2 [F,D]2!ped-up! | %356
!pp!!ped!"_cresc." F,,2 [F,=A,E]2 [F,A,E]2!ped-up! |!ped! F,,2 [F,B,F]2 [F,B,D]2!ped-up! | %358
!mp!!ped! D,,2 [A,_CD_A]2 [A,CDA]2 | [A,CDA]2 ([A,CD]2 [A,CD]2 | [A,CD]2 [G,CD]2 [A,CD]2 | %361
 [A,CD]2 [G,CD]2 [A,CD]2 | [A,CD]2 [G,CD]2 [A,CD]2)!ped-up! | %363
!p!!ped! G,,2 ([D,G,E]2 [D,G,D]2)!ped-up! |!ped! G,,2 ([D,G,E]2 [D,G,D]2)!ped-up! | %365
!ped! D,,2 ([D,A,E]2 [D,A,D]2)!ped-up! |!ped! G,,2!>(! ([D,G,E]2 [D,G,D]2!ped-up! | %367
!ped! [D,G,D]2 [D,G,C]2 [D,G,B,]2!>)!!ped-up! |!ped! [D,G,B,]2) ([C,D,]2 [B,,D,]2!ped-up! | %369
 [B,,D,]2 [C,D,]2 [B,,D,]2 | [B,,D,]2 [C,D,]2 [B,,D,]2) |!ped! A,,2 ([E,A,_F]2 [E,A,E]2)!ped-up! | %372
!ped! A,,2 ([E,A,_F]2 [E,A,E]2)!ped-up! |!ped! E,,2 ([E,B,_F]2 [E,B,E]2)!ped-up! | %374
!ped! A,,2!>(! ([E,A,_F]2 [E,A,E]2!ped-up! |!ped! [E,A,E]2 [E,A,D]2 [E,A,C]2!>)!!ped-up! | %376
!ped! [E,A,C]2) ([D,E,]2 [C,E,]2!ped-up! | [C,E,]2 [D,E,]2 [C,E,]2 | [C,E,]2 [D,E,]2 [C,E,]2) | %379
!ped! D,,2!p!!<(! z2 (D,2!ped-up!!<)! |!p!!ped!({=D,E,)} !trill(!TE,6{D,E,}!ped-up! | %381
!ped! F,2)!p!!<(! D,,2 (D,2!ped-up!!<)! |!p!!>(!({=D,E,)} !trill(!TE,6!ped!{D,E,}!>)!!ped-up! | %383
!p!!ped! F,2)!<(! D,,2 [D,A,D]2 | [D,A,D]2 [D,A,_C]2 [D,A,C]2 | %385
 [D,A,C]2!<)!!p! [D,A,C]2!ped-up! [D,A,]2 | [G,,D,]2 |:!p!!>(! (B,A,G,F,!>)! | %388
!>(! F,E,D,=C,B,,A,,!>)! |!ped! .D,,2)!p!!>(! (B,!ped-up!A,G,F,!>)! |!>(! F,E,D,=C,B,,A,,!>)! | %391
!ped! .D,,2) (A,!ped-up!B,=CD | D=C=E,F,DC | B,2) (B,,F,_A,=C | =CB,=D,E,CB, | A,2) (B,A,_G,F, | %396
!>(! F,E,D,=C,B,,A,,!>)! |!ped! .D,,2)!p!!>(! (B,!ped-up!A,G,F,!>)! |!>(! F,E,D,=C,B,,A,,!>)! | %399
!ped! .D,,2) (A,=G,B,A,!ped-up! |!ped! _C2) (_C,=F,A,!ped-up!_G, | B,2)!ped! (G,,D,G,B,!ped-up! | %402
 A,2)!ped! (D,,A,,D,A, | D!ped-up!=C_CB,CD, |!p!!ped! G,,2) ([D,G,E]2 [D,G,D]2)!ped-up! | %405
!ped! G,,2 ([D,G,E]2 [D,G,D]2)!ped-up! |!ped! D,,2 ([D,A,E]2 [D,A,D]2)!ped-up! | %407
!ped! G,,2!>(! ([D,G,E]2 [D,G,D]2!ped-up! |!ped! [D,G,D]2 [D,G,C]2 [D,G,B,]2!>)!!ped-up! | %409
!ped! [D,G,B,]2) ([C,D,]2 [B,,D,]2!ped-up! | [B,,D,]2 [C,D,]2 [B,,D,]2 | %411
 [B,,D,]2 [C,D,]2 [B,,D,]2) |!ped! A,,2 ([E,A,_F]2 [E,A,E]2)!ped-up! | %413
!ped! A,,2 ([E,A,_F]2 [E,A,E]2)!ped-up! |!ped! E,,2 ([E,B,_F]2 [E,B,E]2)!ped-up! | %415
!ped! A,,2!>(! ([E,A,_F]2 [E,A,E]2!ped-up! |!ped! [E,A,E]2 [E,A,D]2 [E,A,C]2!>)!!ped-up! | %417
!ped! [E,A,C]2) ([D,E,]2 [C,E,]2!ped-up! | [C,E,]2 [D,E,]2 [C,E,]2 | [C,E,]2 [B,,E,]2 [A,,E,]2) | %420
!ped! D,,2!p!!<(! z2 (D,2!ped-up!!<)! |!p!!ped!({=D,E,)} !trill(!TE,6{D,E,}!ped-up! | %422
!ped! F,2)!p!!<(! D,,2 (D,2!ped-up!!<)! |!p!!ped!!>(!({=D,E,)} !trill(!TE,6{D,E,}!ped-up!!>)! | %424
!p!!ped! F,2)!<(! D,,2 [D,A,D]2 | [D,A,D]2 [D,A,_C]2 [D,A,C]2 |1 %426
 [D,A,C]2!<)!!p! [D,A,C]2!ped-up! [D,A,]2 | [G,,D,]2 :|2!ped! [D,A,C]2 [D,A,C]2!ped-up! [D,A,C]2 || %429
 [D,A,C]2 [D,A,C]3 [__E,,__E,] | [__E,,__E,]2 [D,,D,]3 [=C,,=C,] | %431
 [=C,,=C,]2 [_C,,_C,]3 [B,,,B,,] | [B,,,B,,]2 [=A,,,=A,,]3 [_A,,,_A,,] | %433
 [A,,,A,,]2 [G,,,G,,]2 (B,,,2 || [E,,,E,,]2) [=E,,,=E,,][F,,,F,,] [G,,,G,,]2 | %435
!ped! [A,,,A,,]2 !arpeggio![A,,E,F,C]2!ped-up!!ped! !arpeggio![B,,F,A,=D]2!ped-up! | %436
 [G,,,G,,]2 [=G,,,=G,,][A,,,A,,] [=A,,,=A,,]2 | %437
!ped! [=B,,,=B,,]2 !arpeggio![B,,^F,^G,=D]2!ped-up!!ped! !arpeggio![^C,G,=B,^E]2!ped-up! | %438
 [=A,,,=A,,]2 [=B,,,=B,,][=C,,=C,] [^C,,^C,]2 | [=D,,=D,]2 [_E,,_E,][=E,,=E,] [F,,F,]2 | %440
 [G,,G,]2 [A,,A,][=A,,=A,] [B,,B,]2 |!ped! [C,C]2 [C,,C,]2!ped-up! ([=C,,=C,]2 | %442
!ped! [D,,D,]2) [D,B,]2 [G,D]2 |[K:treble] [B,G]2 [DB]2 [Gd]2 | ([Bg]2!ped-up! [cf]2)!ped! [DFc]2 | %445
 [D-Fc]2 !arpeggio![G,DB]2!ped-up![K:bass]!ped! [D,F,C]2 | %446
 [D,-F,C]2 !arpeggio![G,,D,B,]2!ped-up!!ped! [D,F,C]2 | [D,-F,C]2 !arpeggio![G,,D,B,]2!ped-up! z2 | %448
 z6 | z6 |!pp! ([A,,A,]2 [G,,G,]2 [E,,E,]2 | [G,,G,]2 [F,,F,]2 [D,,D,]2 | %452
 [E,,E,]2 [D,,D,]2 [B,,,B,,]2 | [C,,C,]2 [B,,,B,,]2 [G,,,G,,]2 | %454
 .[E,,,E,,]2) [=E,,,=E,,][F,,,F,,] [G,,,G,,]2 | %455
!ped! [A,,,A,,]2 !arpeggio![A,,E,F,C]2!ped-up!!ped! !arpeggio![B,,F,A,=D]2!ped-up! | %456
 [G,,,G,,]2 [=G,,,=G,,][A,,,A,,] [=A,,,=A,,]2 | %457
!ped! [=B,,,=B,,]2 !arpeggio![B,,^F,^G,=D]2!ped-up!!ped! !arpeggio![^C,G,=B,^E]2!ped-up! | %458
 [=A,,,=A,,]2 [=B,,,=B,,][=C,,=C,] [^C,,^C,]2 | [=D,,=D,]2 [^D,,^D,][=E,,=E,] [F,,F,]2 | %460
 [^F,,^F,]2 [=G,,=G,][^G,,^G,] [=A,,=A,]2 | [=C,^F,=C]2 [=B,,=G,=B,]2 ([=D,,,=D,,]2 | %462
!ped! [^C,,,^C,,]2) [^C,=A,]2 [^F,^C]2 |[K:treble] [=A,^F]2 [^C=A]2 [F^c]2 | %464
 ([=A^f]2!ped-up! [=B^e]2)!ped! [^C^EB]2 | %465
 [^C-^E=B]2 !arpeggio![^F,C=A]2!ped-up![K:bass]!ped! .[^C,^E,=B,]2 | %466
 [^C,-^E,=B,]2 !arpeggio![^F,,C,=A,]2!ped-up!!ped! .[C,E,B,]2 | %467
 [^C,-^E,=B,]2 !arpeggio![^F,,C,=A,]2!ped-up! !>![^C,,C,]2- | %468
 [C,,C,]2 [=D,,=D,][^C,,^C,][^G,,,^G,,][=A,,,=A,,] | !>![^F,,,^F,,]6 || %470
!ped! !wedge![=D,,,=D,,]2 (^F,F,!ped-up!^E,F, | =G,^G,=A,^A,=B,=C | ^C=D^D=E^E^F | %473
 ^F2 =G2)!ped! .[=G,_B,_EG]2 | .[E,,E,]2 (=G,G,!ped-up!^F,G, | ^G,=A,^A,=B,=C^C | =D^D=E^E^F=G | %477
 =G2 ^G2)!ped! .[^G,=B,=EG]2 | .[=E,,=E,]2 [^G,=B,][G,B,]!ped-up![^^F,^A,][G,B,] | %479
 [^^G,^B,].[^A,^C] .[=B,=D].[B,D].[B,D].[B,D] | [=B,=D].[^A,^C].[A,C].[A,C].[^^G,=B,].[A,C] | %481
[K:treble] [=B,=D].[^B,^D].[^C=E].[CE].[CE].[CE] | [^C=E].[^B,^D].[B,D].[B,D].[^^A,^^C].[B,D] | %483
[K:bass]!ped! [_C_D=F]2 [_D,,_D,]2 [CDF]2!ped-up! |!ped! [G,CD_F]2 [G,,,G,,]2 [G,B,DF]2!ped-up! | %485
!ped! [__B,CE]2 [C,,C,]2 [B,CE]2!ped-up! |!ped! [=E,=A,=B,=D]2 [=E,,,=E,,]2 [E,^G,=D]2!ped-up! | %487
!ped! [=G,=A,^C]2 [=A,,,=A,,]2 [G,A,C]2!ped-up! |!ped! [^F,=C]2 [=A,C]2[K:treble] [=A=c]2 | %489
 .[=a=c']2[K:bass] .[=C,=C]2 .[=C,,,=C,,]2!ped-up! | .[_D,,,_D,,]2 .[D,,D,]2 .[E,,,E,,]2 | %491
 .[F,,,F,,]2 .[F,,F,]2 .[F,,,F,,]2 | .[B,,,B,,]2 .[D,,D,]2 .E,,2 | .F,,2 z2 .[F,,,F,,]2 | %494
 [B,,,B,,]2 ([_A,,_A,]2 [F,,F,]2 | [G,,G,]2 [F,,F,]2 [D,,D,]2 | [E,,E,]2 [D,,D,]2 [B,,,B,,]2 | %497
 [C,,C,]2 [B,,,B,,]2 [G,,,G,,]2 | .[E,,,E,,]2) [=E,,,=E,,][F,,,F,,] [G,,,G,,]2 | %499
!ped! [A,,,A,,]2 !arpeggio![A,,E,F,C]2!ped-up!!ped! !arpeggio![B,,F,A,=D]2!ped-up! | %500
 [G,,,G,,]2 [=G,,,=G,,][A,,,A,,] [=A,,,=A,,]2 | %501
!ped! [=B,,,=B,,]2 !arpeggio![B,,^F,^G,=D]2!ped-up!!ped! !arpeggio![^C,G,=B,^E]2!ped-up! | %502
 [=A,,,=A,,]2 [=B,,,=B,,][=C,,=C,] [^C,,^C,]2 | [=D,,=D,]2 [^D,,^D,][=E,,=E,] [F,,F,]2 | %504
 [^F,,^F,]2 [=G,,=G,][^G,,^G,]!ped! [=A,,=A,]2 | %505
 [=C,,=C,]2[K:treble] .[=C^F=A=c]2!ped-up![K:bass]!ped! [=B,,,=B,,]2!ped-up! | %506
!ped! [=A,,^C,^F,=A,]2 .[=A,,,A,,]2!ped-up!!ped! [=B,,F,=B,]2 | %507
 .[=B,,,=B,,]2!ped-up!!ped! [=D,^F,^G,=B,]2 .[=D,,D,]2!ped-up! | %508
!ped! [^C,^F,=A,]2 .[^C,,C,]2!ped-up!!ped! [C,F,^G,]2 | %509
 .[^C,,^C,]2 [C,^G,=B,]2[K:treble] [^C^E=B]2 | %510
 [^C-^E=B]2 [^F,CA]2!ped-up![K:bass]!ped! [^C,^E,=B,]2 | %511
 [^C,-^E,=B,]2 [^F,,C,A,]2!ped-up! [_D,=F,_C]2 |!ped! [D,G,__B,]2 G,,2 [D,F,C]2!ped-up! | %513
!ped! [D,G,__B,]2 G,,2 [D,F,C]2!ped-up! |!ped! [D,G,_B,]2 G,,2 [D,F,C]2!ped-up! | %515
!ped! [D,G,B,]2 G,,2 [D,F,C]2!ped-up! |!ped! [D,G,B,]2 G,,2 [D,F,C]2!ped-up! | %517
!ped! [D,G,B,]2 G,,2 [D,F,C]2!ped-up! |!ped! G,,2 ([D,G,E]2 [D,G,D]2)!ped-up! | %519
!ped! G,,2 ([D,G,E]2 [D,G,D]2)!ped-up! |!ped! D,,2 ([D,A,E]2 [D,A,D]2)!ped-up! | %521
!ped! G,,2!pp! ([D,G,E]2 [D,G,D]2!ped-up! |!ped!"_dim." [D,G,D]2 [D,G,C]2 [D,G,B,]2!ped-up! | %523
!ped! [D,G,B,]2) ([C,D,]2 [B,,D,]2!ped-up! | [B,,D,]2 [C,D,]2 [B,,D,]2 | %525
 [B,,D,]2 [C,D,]2 [B,,D,]2) | [B,,D,]2!pp! ([A,,,A,,]2 [G,,,G,,]2 | %527
 [G,,,G,,]2 [A,,,A,,]2 [G,,,G,,]2) | z6 | .[D,,,D,,]2 z2 z2 | .[G,,,G,,]2 z2 z2 | z6 | z6 |] %533
[K:Db][M:4/4]!pp!!ped! [B,,,F,,B,,]2 [D,,G,,D,]2 [B,,,F,,B,,]2 [D,,G,,D,]2!ped-up! | %534
!ped! [B,,,F,,B,,]2 [D,,G,,D,]2 [B,,,F,,B,,]2 [D,,G,,D,]2!ped-up! | %535
!ped! [B,,,F,,B,,]2 [D,,G,,D,]2 [B,,,F,,B,,]2 [D,,G,,D,]2!ped-up! | %536
!ped! [B,,,F,,B,,]2 [D,,G,,D,]2 [B,,,F,,B,,]2 [D,,G,,D,]2!ped-up! | %537
!ped! [B,,,F,,B,,]2 [D,,G,,D,]2 [B,,,F,,B,,]2 [D,,G,,D,]2!ped-up! | %538
!ped! [B,,,F,,B,,]2 [D,,G,,D,]2 [B,,,F,,B,,]2 [D,,G,,D,]2!ped-up! | %539
!p!!ped!!>(! [B,,,F,,B,,]2 [D,,G,,D,]2 [B,,,F,,B,,]2!>)!!pp! [D,,G,,D,]2!ped-up! | %540
!p!!ped!!>(! [B,,,F,,B,,]2 [D,,G,,D,]2 [B,,,F,,B,,]2!>)! [D,,G,,D,]2!ped-up! | %541
!pp!!ped! [B,,,F,,B,,]2 [D,,G,,D,]2 [B,,,F,,B,,]2 [D,,G,,D,]2!ped-up! | %542
!ped! [B,,,F,,B,,]2 [D,,G,,D,]2 [B,,,F,,B,,]2 [D,,G,,D,]2!ped-up! | %543
!p!!>(!!ped! [B,,,F,,B,,]2 [D,,G,,D,]2 [B,,,F,,B,,]2!p! [D,,G,,D,]2!>)!!ped-up! | %544
!p!!>(!!ped! [B,,,F,,B,,]2 [D,,G,,D,]2 [B,,,F,,B,,]2 [D,,G,,D,]2!>)!!ped-up! | %545
!p!!ped! [B,,,F,,B,,]2 [D,,G,,D,]2 [B,,,F,,B,,]2 [D,,G,,D,]2!ped-up! | %546
!ped! [B,,,F,,B,,]2 [D,,G,,D,]2 [B,,,F,,B,,]2 ([A,,,A,,]2!ped-up! || %547
!ped! [D,,,D,,]2) [D,A,D]>E [D,A,F]>G [A,EA]>F!ped-up! | %548
!ped! [A,,,A,,]2[K:treble] ([EGc]>[DGB] [DGB]>[CGA] [CGA]>)!ped-up!([=A,CE] | %549
[K:bass]!ped! [B,,,B,,]2) [F,B,D]2!ped-up!!ped! [D,,D,]2 [F,B,DF]2!ped-up! | %550
!ped! [F,,,F,,]2 [F,B,D=G]2!ped-up! [F,=A,C=A]2 (!>!F,2 | %551
!ped!{=G,,)A,,} !trill(!TA,,4{G,,A,,}!ped-up! D,2 (!>!D,2!ped! | %552
{=E,,)F,,} !trill(!TF,,4{E,,F,,}!ped-up! (G,,2 F,,D,, | %553
!p!!ped! B,,,2)!pp! [D,,G,,D,]2 [B,,,F,,B,,]2 [D,,G,,D,]2!ped-up! | %554
!ped! [B,,,F,,B,,]2 [D,,G,,D,]2 [B,,,F,,B,,]2!ped-up!!f! ([__B,,,__B,,]>!<(![A,,,A,,] | %555
!ped! [D,,,D,,]2) [D,A,D]>E [D,A,F]>G [A,EA]>F!<)!!ped-up! | %556
!ped! [A,,,A,,]2[K:treble] ([EGc]>[DGB] [DGB]>[CGA] [CGA]>)!ped-up!([=A,CE] | %557
[K:bass]!mp!!ped! [B,,,B,,]2) [F,B,D]2!ped-up!!ped! [D,,D,]2 [F,B,DF]2!ped-up! | %558
!ped! [F,,,F,,]2 [F,B,D=G]2!ped-up! [F,=A,C=A]2 (!>!F,2 | %559
!ped!{=G,,)A,,} !trill(!TA,,4{G,,A,,}!ped-up! D,2 (!>!D,2!ped! | %560
{=E,,)F,,} !trill(!TF,,4!ped-up!{E,,F,,} (!>!G,,2 F,,D,, | %561
!p!!ped! B,,,2)!pp! [D,,G,,D,]2 [B,,,F,,B,,]2 [D,,G,,D,]2!ped-up! | %562
!ped! [B,,,F,,B,,]2 [D,,G,,D,]2 ([B,,,F,,B,,]2!ped-up! [A,,,A,,]2) |: %563
!pp!!ped! (D,,A,,F,D) (D,,A,,F,D)!ped-up! |!ped! (E,,A,,G,C) (E,,A,,G,C)!ped-up! | %565
!ped! (A,,,A,,G,C) (A,,,A,,G,C)!ped-up! |!ped! (D,,A,,F,D) (D,,A,,F,D)!ped-up! | %567
!ped! (D,,A,,F,D)!ped-up!!ped! (B,,,B,,A,=D)!ped-up! | %568
!ped! (E,,B,,G,E)!ped-up!!ped! (G,,D,B,E)!ped-up! | %569
!ped! (=G,,=E,DB)!ped-up!!ped! (A,,_E,C_G)!ped-up! | %570
!ped! (A,,,A,,G,C)!ped-up!!ped! (D,,A,,F,D)!ped-up! ::!pp!!ped! (A,,,A,,E,C) (A,,,A,,E,C)!ped-up! | %572
!ped!"_cresc." (B,,,B,,E,D) (B,,,B,,E,D)!ped-up! |!pp!!ped! (B,,,B,,=E,D) (B,,,B,,E,D)!ped-up! | %574
!ped! (C,,C,F,E)!ped-up!!ped! (C,,C,F,E)!ped-up! |!ped! (D,,D,B,F) (D,,D,B,F)!ped-up! | %576
!ped! (E,,E,B,G)!ped-up!!ped! (F,,F,B,F)!ped-up! | %577
!ped! (G,,E,B,E)!ped-up!!ped! (G,,G,B,!p!=E)!ped-up! | %578
!ped!!<(! (F,,C,=A,F)!ped-up!!<)!!mp!!ped!!>(! (E,,E,_A,[CG])!ped-up!!>)! | %579
!pp!!ped! (D,,A,,F,D) (D,,A,,F,D)!ped-up! |!ped! (E,,A,,G,C) (E,,A,,G,C)!ped-up! | %581
!ped! (A,,,A,,G,C) (A,,,A,,G,C)!ped-up! |!ped! (D,,A,,F,D) (D,,A,,F,D)!ped-up! | %583
!ped! (D,,A,,F,D)!ped-up!!ped! (B,,,B,,A,=D)!ped-up! | %584
!ped! (E,,B,,G,E)!ped-up!!ped! (G,,D,B,E)!ped-up! | %585
!ped! (=G,,=E,DB)!ped-up!!ped! A,,_E,C_G!ped-up! |1 %586
!ped! (A,,,A,,G,C)!ped-up!!ped! (D,,A,,F,D)!ped-up! :|2 %587
!ped! (A,,,A,,G,C)!ped-up!!ped! [D,F,D]2 z2!ped-up! || %588
!pp!!ped! [B,,,F,,B,,]2 [D,,G,,D,]2 [B,,,F,,B,,]2 [D,,G,,D,]2!ped-up! | %589
!ped!!<(! [B,,,F,,B,,]2 [D,,G,,D,]2 [B,,,F,,B,,]2 [D,,G,,D,]2!ped-up! | %590
!ped! [B,,,F,,B,,]2 [D,,G,,D,]2 [B,,,F,,B,,]2 [D,,G,,D,]2!ped-up! | %591
!ped! [B,,,F,,B,,]2 [D,,G,,D,]2 [B,,,F,,B,,]2 [D,,G,,D,]2!ped-up! | %592
!ped! [B,,,F,,B,,]2 [D,,G,,D,]2 [B,,,F,,B,,]2 [D,,G,,D,]2!ped-up! | %593
!ped! [B,,,F,,B,,]2 [D,,G,,D,]2 [B,,,F,,B,,]2 [D,,G,,D,]2!<)!!ped-up! | %594
!mp!!ped!!>(! [B,,,F,,B,,]2 [D,,G,,D,]2 [B,,,F,,B,,]2!p! [D,,G,,D,]2!ped-up!!>)! | %595
!mp!!ped!!>(! [B,,,F,,B,,]2 [D,,G,,D,]2 [B,,,F,,B,,]2 [D,,G,,D,]2!ped-up!!>)! | %596
!p!!ped! [B,,,F,,B,,]2 [D,,G,,D,]2 [B,,,F,,B,,]2 [D,,G,,D,]2!ped-up! | %597
!ped! [B,,,F,,B,,]2 [D,,G,,D,]2 [B,,,F,,B,,]2 [D,,G,,D,]2!ped-up! | %598
!p!!>(!!ped! [B,,,F,,B,,]2 [D,,G,,D,]2 [B,,,F,,B,,]2!p! [D,,G,,D,]2!>)!!ped-up! | %599
!p!!>(!!ped! [B,,,F,,B,,]2 [D,,G,,D,]2 [B,,,F,,B,,]2 [D,,G,,D,]2!>)!!ped-up! | %600
!p!!ped! [B,,,F,,B,,]2 [D,,G,,D,]2 [B,,,F,,B,,]2 [D,,G,,D,]2!ped-up! | %601
!ped! [B,,,F,,B,,]2 [D,,G,,D,]2 [B,,,F,,B,,]2 ([A,,,A,,]2!ped-up! | %602
!ped! [D,,,D,,]2) [D,A,D]>E [D,A,F]>G [A,EA]>F!ped-up! | %603
!ped! [A,,,A,,]2[K:treble] ([EGc]>[DGB] [DGB]>[CGA] [CGA]>)!ped-up!([=A,CE] | %604
[K:bass]!ped! [B,,,B,,]2) [F,B,D]2!ped-up!!ped! [D,,D,]2 [F,B,DF]2!ped-up! | %605
!ped! [F,,,F,,]2 [F,B,D=G]2!ped-up! [F,=A,C=A]2 (!>!F,2 | %606
!ped!{=G,,)A,,} !trill(!TA,,4{G,,A,,}!ped-up! D,2 (!>!D,2!ped! | %607
{=E,,)F,,} !trill(!TF,,4{E,,F,,}!ped-up! (G,,2 F,,D,, | %608
!p!!ped! B,,,2)!pp! [D,,G,,D,]2 [B,,,F,,B,,]2 [D,,G,,D,]2!ped-up! | %609
!ped! [B,,,F,,B,,]2 [D,,G,,D,]2 [B,,,F,,B,,]2!ped-up!!f! ([__B,,,__B,,]>!<(![A,,,A,,] | %610
!ped! [D,,,D,,]2) [D,A,D]>E [D,A,F]>G [A,EA]>F!<)!!ped-up! | %611
!f!!ped! [A,,,A,,]2[K:treble]!>(! [EGc]>[DGB] [DGB]>[CGA] [CGA]>!ped-up!([=A,CE]!>)! | %612
[K:bass]!mp!!ped! [B,,,B,,]2) [F,B,D]2!ped-up!!ped! [D,,D,]2 [F,B,DF]2!ped-up! | %613
!ped! [F,,,F,,]2 [F,B,D=G]2!ped-up! [F,=A,C=A]2 (!>!F,2 | %614
!ped!{=G,,)A,,} !trill(!TA,,4{G,,A,,}!ped-up! D,2 (!>!D,2!ped! | %615
{=E,,)F,,} !trill(!TF,,4!ped-up!{E,,F,,} (!>!G,,2 F,,D,, | %616
!p!!ped! B,,,2)!pp! [D,,G,,D,]2 [B,,,F,,B,,]2 [D,,G,,D,]2!ped-up! | %617
!ped! [B,,,F,,B,,]2 [D,,G,,D,]2!ped-up!!ped! !fermata![B,,,F,,B,,]2 x2!ped-up! |] %618
[M:2/2]"^sotto voce e legato"!ped! (3F,,=G,,B,, (3D,=E,,G,,!ped-up!!ped! (3F,,G,,B,, (3D,E,,G,,!ped-up! | %619
!ped! (3=G,,=A,,C, (3_E,^F,,A,,!ped-up!!ped! (3G,,A,,C, (3E,F,,A,,!ped-up! | %620
!ped! (3B,,C,E, (3_G,=A,,C,!ped-up!!ped! (3D,E,G, (3=A,C,E,!ped-up! | %621
!ped! (3D,E,G, (3=A,C,E,!ped-up!!ped! (3G,B,C (3EF,A,!ped-up! | %622
!ped! (3B,DG (3FCD!ped-up!!ped! (3=ECD (3=A,B,G,!ped-up! | %623
!ped! (3=E,F,B,!ped-up!!ped! (3^G,=A,D!ped-up!!ped! (3A,B,D!ped-up!!ped! (3=B,CF!ped-up! | %624
!ped! (3_A,_C_F!ped-up!!ped! (3E_B,C!ped-up!!ped! (3=DB,C!ped-up!!ped! (3=G,A,_F,!ped-up! | %625
!ped! (3=D,E,A,!ped-up!!ped! (3=E,F,_C!ped-up!!ped! (3F,_G,C!ped-up!!ped! (3=A,B,_E!ped-up! | %626
!ped! (3_DF,B, (3^C,=E,=A,!ped-up!!ped! (3=C_E,_A, (3=B,,=D,=G,!ped-up! | %627
!ped! (3_C__E,G, (3B,,D,G,!ped-up!!ped! (3B,G,C!ped-up!!ped! (3=CD_E!ped-up! | %628
!ped! (3=E=G,C (3_E,_G,_C!ped-up!!ped! (3=DF,B, (3^C,=E,=A,!ped-up! | %629
!ped! (3=C=E,_A, (3=B,,=D,=G,!ped-up!!ped! (3=B,^F,^C!ped-up!!ped! (3=D_E=E!ped-up! | %630
[K:treble]!ped! (3=F=A,_E!ped-up!!ped! (3=EF_G!ped-up!!ped! (3FB,D!ped-up!!ped! (3EF^F!ped-up! | %631
!ped! (3=G=B,=F!ped-up!!ped! (3^FGA!ped-up!!ped! (3GC_E!ped-up!!ped! (3FGA!ped-up! | %632
!ped! (3EC=F!ped-up!!ped! (3EA,D!ped-up![K:bass]!ped! (3CE,_B,!ped-up!!ped! (3A,C,F,!ped-up! | %633
!ped! (3E,A,,D,!ped-up![K:bass]!ped! (3C,=G,,A,,!ped-up!!ped! (3C,^F,,=D,!ped-up!!ped! (3C,^E,,F,,!ped-up! | %634
!ped! (3=G,,=A,,=B,, (3C,=D,E,!ped-up!!ped! (3_A,,_B,,=B,, (3C,_D,E,!ped-up! | %635
!ped! (3=A,,B,,C, (3D,E,F,!ped-up!!ped! (3B,,=B,,C, (3D,E,F,!ped-up! | %636
!ped! (3C,D,=D, (3E,F,G,!ped-up!!ped! (3__B,,_D,=D, (3E,F,G,!ped-up! | %637
!ped! (3__B,G,_F,!ped-up!!ped! (3__E,F,G,!ped-up!!ped! (3__B,,D,__E,!ped-up!!ped! (3_F,=F,G,!ped-up! | %638
!ped! (3__B,A,=G,!ped-up!!ped! (3_G,E,C, (3G,E,C,!ped-up!!ped! (3_B,,__B,,A,,!ped-up! | %639
[K:bass]!ped! (3=G,,A,,__B,,!ped-up!!ped! (3F,,_G,,A,,!ped-up!!ped! (3=E,,F,,G,,!ped-up!!ped! (3=D,,_E,,F,,!ped-up! | %640
!ped! (3=G,,,A,,,B,,, (3C,,D,,!ped-up!E,,!ped! (3F,,_G,,=G,, (3A,,F,,B,,!ped-up! | %641
!ped! (3A,,F,E, (3D,C,B,,!ped-up!!ped! (3A,,F,,_G,,!ped-up!!ped! (3A,,F,,B,,!ped-up! | %642
!ped! (3A,,E,,F,,!ped-up!!ped! (3F,,E,,B,,!ped-up!!ped! (3A,,D,,E,,!ped-up!!ped! (3F,,D,,B,,!ped-up! | %643
!ped! (3A,,C,,D,,!ped-up!!ped! (3E,,C,,F,,!ped-up!!ped! (3E,,B,,,F,,!ped-up!!ped! (3E,,A,,,B,,,!ped-up! | %644
!ped! (3A,,,D,,E,, (3F,,G,,A,,!ped-up!!ped! (3B,,C,D, (3E,F,G,!ped-up! | %645
!ped! (3A,FE!ped-up!!ped! (3DCB,!ped-up!!ped! (3A,F,G,!ped-up!!ped! (3A,F,B,!ped-up! | %646
!ped! (3A,E,F,!ped-up!!ped! (3G,E,B,!ped-up!!ped! (3A,D,E,!ped-up!!ped! (3F,D,B,!ped-up! | %647
!ped! (3A,C,D,!ped-up!!ped! (3E,C,F,!ped-up!!ped! (3E,B,,F,!ped-up!!ped! (3E,A,,F,!ped-up! | %648
!ped! (3G,F,E,!ped-up!!ped! (3D,C,B,,!ped-up!!ped! (3=A,,F,C,!ped-up!!ped! (3E,D,B,,!ped-up! | %649
!ped! (3=A,,F,C,!ped-up!!ped! (3E,D,B,,!ped-up!!ped! (3A,,F,C,!ped-up!!ped! (3E,D,B,,!ped-up! | %650
!ped! (3_A,=G,F,!ped-up!!ped! (3E,=D,C,!ped-up!!ped! (3=B,,G,D,!ped-up!!ped! (3F,E,C,!ped-up! | %651
!ped! (3=B,,=G,=D,!ped-up!!ped! (3F,E,C,!ped-up!!ped! (3B,,G,D,!ped-up!!ped! (3F,E,C,!ped-up! | %652
!ped! (3_DC_B,!ped-up!!ped! (3A,=G,F,!ped-up!!ped! (3B,=E,G,!ped-up!!ped! (3D,E,C,!ped-up! | %653
!ped! (3DCB,!ped-up!!ped! (3A,=G,F,!ped-up!!ped! (3B,=E,G,!ped-up!!ped! (3D,E,C,!ped-up! | %654
!ped! (3B,=E,=G,!ped-up!!ped! (3D,E,C,!ped-up!!ped! (3G,D,E,!ped-up!!ped! (3C,E,B,,!ped-up! | %655
!ped! (3=E,B,,D,!ped-up![K:bass]!ped! (3=A,,B,,_A,,!ped-up!!ped! (3D,A,,B,,!ped-up!!ped! (3=G,,B,,_G,,!ped-up! | %656
!ped! (3F,,=G,,B,, (3D,=E,,G,,!ped-up!!ped! (3F,,G,,B,, (3D,E,,G,,!ped-up! | %657
!ped! (3=G,,=A,,C, (3E,^F,,A,,!ped-up!!ped! (3G,,A,,C, (3E,F,,A,,!ped-up! | %658
!ped! (3B,,C,E, (3_G,=A,,C,!ped-up!!ped! (3D,E,G, (3=A,C,E,!ped-up! | %659
!ped! (3D,E,G, (3=A,C,E,!ped-up!!ped! (3G,B,C (3EF,A,!ped-up! | %660
!ped! (3B,DG!ped-up!!ped! (3FCD!ped-up!!ped! (3=ECD!ped-up!!ped! (3=A,B,G,!ped-up! | %661
!ped! (3=E,F,B,!ped-up!!ped! (3^G,=A,D!ped-up!!ped! (3A,B,D!ped-up!!ped! (3=B,CF!ped-up! | %662
!ped! (3_A,_C_F!ped-up!!ped! (3E_B,C!ped-up!!ped! (3=DB,C!ped-up!!ped! (3=G,A,_F,!ped-up! | %663
!ped! (3=D,E,A,!ped-up!!ped! (3=E,F,_C!ped-up!!ped! (3F,_G,C!ped-up!!ped! (3=A,B,E!ped-up! | %664
!ped! (3_DC_C!ped-up!!ped! (3B,=A,F!ped-up!!ped! (3E=D_D!ped-up![K:treble]!ped! (3=CB,G!ped-up! | %665
!ped! (3FE=D!ped-up!!ped! (3_DC=A!ped-up!!ped! (3CDB!ped-up!!ped! (3=DE!>(!B!ped-up!!>)! | %666
!ped! (3cB_A (3GF=E!ped-up!!ped! (3cBA (3GFE!ped-up! | %667
!ped! (3GF=E (3_E=D_D!ped-up!!ped! (3E=B,C!ped-up!!ped! (3D=A,_B,!ped-up! | %668
[K:bass]!ped! (3C=G,_A,!ped-up!!ped! (3_C_G,E!ped-up!!ped! (3B,F,G,!ped-up!!ped! (3=A,=E,^C!ped-up! | %669
!ped! (3^G,^D,=E,!ped-up!!ped! (3=G,=D,=B,!ped-up!!ped! (3^F,^C,D,!ped-up!!ped! (3=F,=C,=A,!ped-up! | %670
!ped! (3=D=A,_B,!ped-up!!ped! (3_D_A,F!ped-up!!ped! (3C=G,A,!ped-up!!ped! (3_C_G,E!ped-up! | %671
!ped! (3B,F,G,!ped-up!!ped! (3=A,=E,^C!ped-up!!ped! (3^G,^D,E,!ped-up!!ped! (3=G,=D,=B,!ped-up! | %672
!ped! (3=E=B,C!ped-up!!ped! (3_E_B,=G!ped-up!!ped! (3=D=A,B,!ped-up!!ped! (3_D_A,F!ped-up! | %673
!ped! (3C=G,A,!ped-up!!ped! (3_C_G,E!ped-up!!ped! (3B,F,E!ped-up!!ped! (3B,F,D!ped-up! | %674
!ped! (3G,F,=E, (3_E,D,C,!ped-up!!ped! (3G,F,E, (3D,C,B,,!ped-up! | %675
!ped! (3G,F,E, (3D,C,_C,!ped-up!!ped! (3G,F,E, (3D,C,B,,!ped-up! | %676
!ped! (3=A,,B,,=C, (3E,D,A,,!ped-up!!ped! (3C,B,,F,,!ped-up!!ped! (3_A,,G,,F,,!ped-up! | %677
!ped! (3E,,F,,G,, (3B,,A,,G,,!ped-up!!ped! (3F,,D,,E,,!ped-up!!ped! (3F,,=E,,F,,!ped-up! | %678
!ped! (3G,,F,,=E,, (3_E,,D,,C,,!ped-up!!ped! (3G,,F,,E,, (3D,,C,,B,,,!ped-up! | %679
!ped! (3G,,F,,E,, (3D,,C,,_C,,!ped-up!!ped! (3G,,F,,E,, (3D,,C,,B,,,!ped-up! | %680
!ped! (3=A,,,B,,,_C,, (3D,,E,,F,, (3G,,A,,B,, (3_C,D,E,!ped-up! | %681
!ped! (3F,=E,D, (3=C,B,,G,, (3F,,=E,,D,, (3C,,B,,,G,,,!ped-up! | %682
!ped! (3F,,,B,,,^G,,, (3=A,,,D,,A,,, (3B,,,_E,,=B,,, (3C,,F,,C,,!ped-up! | %683
!ped! (3D,,G,,=D,, (3E,,=A,,F,, (3G,,_D,A,, (3C,G,F,!ped-up! | %684
!ped! (3=A,,D,A,, (3C,G,F, (3A,,D,A,, (3C,G,F,!ped-up! | %685
!ped! (3C,G,F, (3C,G,F, (3C,G,F, (3B,,G,F,!ped-up! | %686
!ped! (3D,F,,E, (3F,E,D, (3B,,F,,C, (3D,C,B,,!ped-up! | %687
!ped! (3D,F,,E, (3F,E,D, (3B,,F,,C, (3D,C,B,,!ped-up! | %688
[K:bass]!ped! (3E,,F,,B,, (3D,D,,F,,!ped-up!!ped! (3E,,F,,B,, (3D,D,,F,,!ped-up! | %689
!ped! (3C,,D,,F,, (3B,,B,,,D,,!ped-up!!ped! (3C,,D,,F,, (3B,,B,,,D,,!ped-up! | %690
 z4!ped! (3C,,D,,F,, (3B,,B,,,D,,!ped-up! | z4!ped! (3C,,D,,F,, (3B,,B,,,D,,!ped-up! | %692
!ped! .[B,,,B,,]2 z2 !fermata![F,B,DF]4!ped-up! |] %693
V:3
 x8 | x8 | x8 !arpeggio!x8 | x8 |: (.[B,,,B,,] z z (F,,[B,,,B,,]) z z (F,, | %5
[B,,,B,,]) z z (F,,[B,,,B,,]) z z (F,, | [B,,,B,,]) z z (F,,[B,,,B,,]) z z (F,, | %7
[B,,,B,,]) z z (F,,[B,,,B,,]) z z F,) | x8 | x8 | x8 | x8 | x8 | x8 | x8 | x8 | x8 | x8 | x8 | x8 | %20
 x8 | x8 | x8 | x8 | x8 | x8 | x8 | x8 | x8 | x8 | x8 | x8 | x8 | x8 | x8 | x8 | x8 | x8 | x8 | %39
 x8 | x10 | x8 | x8 | x8 | x9 | x8 | x8 | x8 | x9 | A,,8 | x8 | A,,4 G,,7/2 x/4x/4 | x8 | x8 | x8 | %55
 x8 | x8 | x8 | x8 | x8 | x9 | x8 | x8 | x8 | x9 | x8 | x8 | x8 | x4[K:treble] x4 | %69
[K:bass] x4[K:treble] x4 |[K:bass] x4[K:treble] x4 |[K:bass] x4[K:treble] x4 |[K:bass] x8 | x8 | %74
 x8 | x8 | x8 | x8 | x8 | x8 | x20/3[K:treble] x4/3 | x8 | x8 | x8/3[K:bass] x16/3 | %84
 x20/3[K:treble] x4/3 | x8 | x8 | x8/3[K:bass] x16/3 | x8 | x8 | x8 | x8 | x8 | x8 | x8 | x8 | x8 | %97
 x8 | x8 | x8 | x8 | x8 | x8 |1 x8 :|2 x8 || x8 | x8 | x8 | x8 | x8 | x8 | x8 | x8 | x8 | x8 | x8 | %116
 x8 | [=A,,=A,]8 | ([=A,,,=A,,][^E,,,^E,,]) z ([=G,,,=G,,] [A,,,A,,][E,,,E,,]) z2 | =A,,8 | =B,,8 | %121
 x8 | x8 | x8 | x8 | (3(=E,,2 =A,,2 =G,2) (3(^F,2 A,,2 =D,,2) | %126
 (3(=F,,2 =B,,2 =A,2) (3(^G,2 B,,2 =E,,2) | x8 | x8 | x8 | x8 | x8 | x8 | %133
 (3(^D,,2 =B,,2 =A,2) (3(^G,2 B,,2 =E,,2) | (3(^E,,2 ^C,2 =B,2) (3(^A,2 C,2 ^F,,2) | %135
 (3(^^F,,2 ^D,2 ^C2) (3(^G,,2 ^D,2 ^B,2) | x8 | x8 | x8 | x8 | x8 | x8 | x8 | x8 | x8 | x8 | x8 | %147
 x8 | x8 | x8 | x8 | x8 | x8 | x8 | x8 | x4[K:treble] x4 | x4[K:bass] x4 | x8 | x8 | %159
 x4[K:treble] x4 | x4[K:bass] x4 | x8 | x8 | x20/3[K:treble] x4/3 | x8 | x8 | x8 | x8 | %168
[K:bass] x8 ||[K:Bb] x10 | B,,4!p! E,3 !>!x/!>!x/ | F,,8- | F,,8 | x8 | x8 | x8 | x8 | x8 | %178
 [F,C]8 | x8 | x8 | x8 | x8 | x8 | x8 | x8 | x8 | x8 | x8 | x8 | x8 | x8 | x8 | x9 | x8 | x8 | x8 | %197
 x8 | x4[K:treble] x4 |[K:bass] x4[K:treble] x4 |[K:bass] x4[K:treble] x4 |[K:bass] x8 | x8 | x8 | %204
 x8 | x8 | x8 | x8 | =E,,,2 F,,,2 G,2 F,2 | x8 | x8/3[K:treble] x16/3 | x20/3[K:bass] x4/3 | x8 | %213
 x8 | x8/3[K:treble] x16/3 | x20/3[K:bass] x4/3 | x8 | x8 | x8 | x8 | x8 | x8 | x8 | x8 | x8 | x8 | %226
 x8 | x8 | x8 | x8 | x8 | x8 | x8 | x8 | x8 | x8 | x8 | x8 | x8 | x8 |[K:treble] x8 |[K:bass] x8 |] %242
[K:Gb][M:3/4] x2 | x6 | x3/2 (3x/4x/4x/4 x3/2 (3x/4x/4x/4 x2 | x6 | %246
 x3/2 (3x/4x/4x/4 x3/2 (3x/4x/4x/4 x2 | x6 | x6 | x6 | x6 | x6 |[K:treble] x6 | x6 | %254
 x3/2 x/4x/4 x4[K:bass] | x3/2 x/4x/4 x4 | x3/2 x/4x/4 x2 x2 | x6 | x6 | x6 | x6 | x6 | x6 | x6 | %264
 x3/2 (3x/4x/4x/4 x3/2 (3x/4x/4x/4 x2 | x6 | x3/2 (3x/4x/4x/4 x3/2 (3x/4x/4x/4 x2 | x6 | x6 | x6 | %270
 x6 | x6 |[K:treble] x6 | x6 | x3/2 x/4x/4 x2[K:bass] x2 | x3/2 x/4x/4 x2 x2 | x3/2 x/4x/4 x2 x2 | %277
 x6 | x6 || x6 | x6 | x6 | x6 | x6 | x6 | x6 | x6 | x6 | x6 | x6 |[K:treble] x6 | x6 |[K:bass] x6 | %293
 x6 | x6 | x6 | x6 | x4[K:treble] x2 | x2[K:bass] x4 | x6 | x6 | x6 | x6 | x6 | x6 | x6 | x6 | x6 | %308
 x3/2 (3x/4x/4x/4 x3/2 (3x/4x/4x/4 x2 | x6 | x3/2 (3x/4x/4x/4 x3/2 (3x/4x/4x/4 x2 | x6 | x6 | x6 | %314
 x6 | x6 | x6 | x6 | x6 | x6 | x6 | x6 | x6 || x6 | x6 | x6 | x6 | x6 | x6 | x6 | x6 | x6 | x6 | %333
 x6 | x6 | x6 | x6 | x6 | x6 | x6 | x6 | x6 | x6 | x6 | x6 | x6 | x6 | x6 | x6 | x6 | x6 | x6 | %352
 x6 | x6 | x6 | x6 | x6 | x6 | x6 | x6 | x6 | x6 | x6 | x6 | x6 | x6 | x6 | x6 | x6 | x6 | x6 | %371
 x6 | x6 | x6 | x6 | x6 | x6 | x6 | x6 | x6 | %380
 x/!>(!x/(3x/x/x/ (6:4:6x/x/x/x/x/x/ (5:4:5x/x/x/x/!trill)!x/!>)! | x6 | %382
 x/x/(3x/x/x/ (6:4:6x/x/x/x/x/x/ (5:4:5x/x/x/x/!trill)!x/ | x6 | x6 | x6 | x2 |: x4 | x6 | x6 | %390
 x6 | x6 | x6 | x6 | x6 | x6 | x6 | x6 | x6 | x6 | x6 | x6 | x6 | x6 | x6 | x6 | x6 | x6 | x6 | %409
 x6 | x6 | x6 | x6 | x6 | x6 | x6 | x6 | x6 | x6 | x6 | x6 | %421
 x/!>(!x/(3x/x/x/ (6:4:6x/x/x/x/x/x/ (5:4:5x/x/x/x/!trill)!x/!>)! | x6 | %423
 x/x/(3x/x/x/ (6:4:6x/x/x/x/x/x/ (5:4:5x/x/x/x/!trill)!x/ | x6 | x6 |1 x6 | x2 :|2 x6 || x6 | x6 | %431
 x6 | x6 | x6 || x6 | x3/2 (3x/4x/4x/4 x3/2 (3x/4x/4x/4 x2 | x6 | %437
 x3/2 (3x/4x/4x/4 x3/2 (3x/4x/4x/4 x2 | x6 | x6 | x6 | x6 | x6 |[K:treble] x6 | x6 | %445
 x3/2 x/4x/4 x4[K:bass] | x3/2 x/4x/4 x4 | x3/2 x/4x/4 x2 z2 | x6 | x6 | x6 | x6 | x6 | x6 | x6 | %455
 x3/2 (3x/4x/4x/4 x3/2 (3x/4x/4x/4 x2 | x6 | x3/2 (3x/4x/4x/4 x3/2 (3x/4x/4x/4 x2 | x6 | x6 | x6 | %461
 x6 | x6 |[K:treble] x6 | x6 | x3/2 x/4x/4 x2[K:bass] x2 | x3/2 x/4x/4 x2 x2 | x3/2 x/4x/4 x2 x2 | %468
 x6 | x6 || x6 | x6 | x6 | x6 | x6 | x6 | x6 | x6 | x6 | x6 | x6 |[K:treble] x6 | x6 |[K:bass] x6 | %484
 x6 | x6 | x6 | x6 | x4[K:treble] x2 | x2[K:bass] x4 | x6 | x6 | x6 | x6 | x6 | x6 | x6 | x6 | x6 | %499
 x3/2 (3x/4x/4x/4 x3/2 (3x/4x/4x/4 x2 | x6 | x3/2 (3x/4x/4x/4 x3/2 (3x/4x/4x/4 x2 | x6 | x6 | x6 | %505
 x2[K:treble] x2[K:bass] x2 | x6 | x6 | x6 | x4[K:treble] x2 | x4[K:bass] x2 | x6 | x6 | x6 | x6 | %515
 x6 | x6 | x6 | x6 | x6 | x6 | x6 | x6 | x6 | x6 | x6 | x6 | x6 | x6 | x6 | x6 | x6 | x6 |] %533
[K:Db][M:4/4] x8 | x8 | x8 | x8 | x8 | x8 | x8 | x8 | x8 | x8 | x8 | x8 | x8 | x8 || x8 | %548
 x2[K:treble] x6 |[K:bass] x8 | x6 x3/2 x/4x/4 | %551
 (6:4:12x/4x/4x/4x/4x/4x/4x/4x/4x/4x/4x/4x/4 (6:4:6x/4x/4x/4x/4x/4x/4(5:4:5x/4x/4x/4x/4!trill)!x/4 x2 x3/2 x/4x/4 | %552
 (6:4:12x/4x/4x/4x/4x/4x/4x/4x/4x/4x/4x/4x/4 (6:4:6x/4x/4x/4x/4x/4x/4(5:4:5x/4x/4x/4x/4!trill)!x/4 x4 | %553
 x8 | x8 | x8 | x2[K:treble] x6 |[K:bass] x8 | x6 x3/2 x/4x/4 | %559
 (6:4:12x/4x/4x/4x/4x/4x/4x/4x/4x/4x/4x/4x/4 (6:4:6x/4x/4x/4x/4x/4x/4(5:4:5x/4x/4x/4x/4!trill)!x/4 x2 x3/2 x/4x/4 | %560
 (6:4:12x/4x/4x/4x/4x/4x/4x/4x/4x/4x/4x/4x/4 (6:4:6x/4x/4x/4x/4x/4x/4(5:4:5x/4x/4x/4x/4!trill)!x/4 x4 | %561
 x8 | x8 |: x8 | x8 | x8 | x8 | x8 | x8 | x8 | x8 :: x8 | x8 | x8 | x8 | x8 | x8 | x8 | x8 | x8 | %580
 x8 | x8 | x8 | x8 | x8 | x8 |1 x8 :|2 x8 || x8 | x8 | x8 | x8 | x8 | x8 | x8 | x8 | x8 | x8 | x8 | %599
 x8 | x8 | x8 | x8 | x2[K:treble] x6 |[K:bass] x8 | x6 x3/2 x/4x/4 | %606
 (6:4:12x/4x/4x/4x/4x/4x/4x/4x/4x/4x/4x/4x/4 (6:4:6x/4x/4x/4x/4x/4x/4(5:4:5x/4x/4x/4x/4!trill)!x/4 x2 x3/2 x/4x/4 | %607
 (6:4:12x/4x/4x/4x/4x/4x/4x/4x/4x/4x/4x/4x/4 (6:4:6x/4x/4x/4x/4x/4x/4(5:4:5x/4x/4x/4x/4!trill)!x/4 x4 | %608
 x8 | x8 | x8 | x2[K:treble] x6 |[K:bass] x8 | x6 x3/2 x/4x/4 | %614
 (6:4:12x/4x/4x/4x/4x/4x/4x/4x/4x/4x/4x/4x/4 (6:4:6x/4x/4x/4x/4x/4x/4(5:4:5x/4x/4x/4x/4!trill)!x/4 x2 x3/2 x/4x/4 | %615
 (6:4:12x/4x/4x/4x/4x/4x/4x/4x/4x/4x/4x/4x/4 (6:4:6x/4x/4x/4x/4x/4x/4(5:4:5x/4x/4x/4x/4!trill)!x/4 x4 | %616
 x8 | x8 |][M:2/2] x8 | x8 | x8 | x8 | x8 | x8 | x8 | x8 | x8 | x8 | x8 | x8 |[K:treble] x8 | x8 | %632
 x4[K:bass] x4 | x2[K:bass] x6 | x8 | x8 | x8 | x8 | x8 |[K:bass] x8 | x8 | x8 | x8 | x8 | x8 | %645
 x8 | x8 | x8 | x8 | x8 | x8 | x8 | x8 | x8 | x8 | x2[K:bass] x6 | x8 | x8 | x8 | x8 | x8 | x8 | %662
 x8 | x8 | x6[K:treble] x2 | x8 | x8 | x8 |[K:bass] x8 | x8 | x8 | x8 | x8 | x8 | x8 | x8 | x8 | %677
 x8 | x8 | x8 | x8 | x8 | x8 | x8 | x8 | x8 | x8 | x8 |[K:bass] x8 | x8 | x8 | x8 | x8 |] %693
V:4
 x8 | x4[K:bass] x4 | x16 | x8 |:[K:treble] x8 | x8 | x8 | x8 | x8 | x8 | x8 | x8 | x8 | x8 | x8 | %15
 (c'd) z (e [fb]d) z2 | x8 | x8 | x8 | x8 | ([ff']!>(![=e=e']) z ([dd'] [cc'][Bb]) z2!>)! | x8 | %22
 x8 | x8 | x8 | x8 | x8 | x8 | x8 | x8 | x8 | x8 | x8 | x8 | x8 | x8 | %36
 [=A=a]2"^" [Bb]2 [Aa]2 [Bb]2 | [=A=a]2 [Bb]2 [Aa]2 [Bb]2 | x8 | x8 | x10 | x8 | x8 | x8 | %44
 x F,4 A,4 | x8 | x8 | x8 | x !arpeggio!D8 | _E4 G4 | x8 | C4 B,4 | c8 | x8 | x8 | [B,D]4 [G,=C]4 | %56
 x8 | x8 | [Gc]8 | x8 | x d8 | [Bg]2 [Af]2 (3[Af]2 [ca]2 [Bg]2 | [Gc]8 | x8 | x9 | [ga]8 | x8 | %67
 [ga]8 |!8va(! [c'e']8 | x8 | [_e'g']8 | f'4 b4 | [aa']2 [gg']2!8va)! [ff']2 [=d=d']2 | %73
 [ff']2 [ee']2 [Bb]2 [_dd']2 | [Bb]2 [Aa]2 x4 | G4 [Ff]2 [Gg]2 | [Bb]2 [=A=a]2 x4 | %77
 [Ee]2 [Ff][Ee] [=D=d][Ee][Ff][Gg] | x8 | [EA-d]4!f! [GAc]2 z2 | x8 | x8 | x8 | x8 | x8 | x8 | x8 | %87
 x8 | x8 | x8 | x8 | x20/3!8va(! x4/3 | x4/3!8va)! x20/3 | x8 | x8 | x8 | x8 | x8 | x8 | x8 | x8 | %101
 x8 | x8 |1 x8 :|2 [G,C]8 || x8 |[K:bass] x8 | x8 |[K:treble] [C=D-]8 | =B,8 | x8 | x8 | %112
[K:bass] x8 | x8 | x8 | x8 |[K:treble] [=D=E]8 | ^C8 | x8 | ^C8 | =D8 | [=F=G]8 | [_E=G]4 F4 | %123
 [CE]8 | =B,6 =G2 | x8 | x8 | x8 | x8 | =E8 | [CF]8 | =E4 x4 | _E6 =A2 | x8 | x8 | x8 | x8 | x8 | %138
 x8 | x8 | x8 | x8 | x8 | x8 | x8 | x8 | x8 | x8 | x8 | x8 | x8 | x8 | x8 | x8 | x8 | x8 | %156
 x4!8va(! x4 | x2!8va)! x6 | x8 | x8 | x8 | x8 | x8 | x8 | x8 | x8 | x8 | x8 | x8 ||[K:Bb] x10 | %170
 x8 | x8 | x8 | x8 | [Ge]2 [Fd]2 [_A=B]2 [Gc]2 | x8 | x8 | x8 | [Aa]4 [Bb]3 [cc'] | x8 | %180
 [Ac]4 [Gc]4 | x8 | x8 | x8 | [GB]4 [=FA]2!p! [EG]2 | x8 | x8 | [EA]8 | x8 | %189
 !arpeggio![Df]4 [Fd]4 | [Ge]3 [Fd] (3[Fd]2 [Af]2 [Ge]2 | [EA]8 | x8 | x !arpeggio![Df]4 [Gg]4 | %194
 [Aa]4 [Bb]3 [cc'] | [d-f]4 d4 | [Aa]4 [Bb]3 [cc'] | [dd']4 [ee']4- | %198
 [ee']2 [dd']2 [^c^c']2 [dd']2 | [ff']4 [gg']4- | [gg']2 [ff']2 [ee']3 [dd'] | %201
 [ff']2 [ee']2 [dd']2 [=B=b]2 | [dd']2 [cc']2 [Gg]2 [_Bb]2 | [Bb]2 !>![Aa]4 !>![Gg]2- | %204
 [Gg]2 !>![_G_g]4 !>![Ff]2- | x8 | x8 | x8 | [C_E]8 | x8 | x8 | x8 | x8 | x8 | x8 | x8 | x8 | x8 | %218
 x8 | x8 | x8 | x8 | x8 | x8 | x8 | x8 | x8 | x8 | x4 E4 | x8 | x8 | x8 | x8 | x8 | x8 | x8 | x8 | %237
 x8 | x8 | x8 |!8va(! x8!8va)! |[K:bass] x8 |][K:Gb][M:3/4][K:treble][K:bass] x2 | x6 | %244
 x2[K:treble] x4 | x6 | x6 | x6 | x6 | x6 | x6 | x6 | x6 | x6 | x6 | x6 | x6 | x6 | x6 | x6 | x6 | %261
 x6 | x6 |[K:bass] x6 | x2[K:treble] x4 | x6 | x6 | x6 | x6 | x6 | x4[K:bass] x2 | x[K:treble] x5 | %272
 x6 | x6 | x6 | x6 | x6 | x6 | x6 || x6 | x6 | x6 | x6 |!8va(! x2!8va)! x4 | x6 | x6 | x6 | %287
!8va(! x2!8va)! x4 | x6 | x6 | x6 | x6 | x7/4 ((x/4{/[Bb]))} x2 x2 | x6 | %294
 x7/4 ((x/4{/[Aa]))} x2 x2 | x6 | x7/4 ((x/4{/[^F^f]))} x2 x2 | x6 |!8va(! x2!8va)! x4 | x6 | x6 | %301
 x2[K:bass] x4 | x6 |[K:treble] x6 | x4!8va(! x2!8va)! | x6 | x4!8va(! x2!8va)! |[K:bass] x6 | %308
 x2[K:treble] x4 | x6 | x6 | x6 | x6 | x6 | x6 | x2!8va(! x2!8va)! x2 |!8va(! x2!8va)! x4 | x6 | %318
 x6 | x6 | x6 | x6 | x6 || z2 B,2 !>!B,2- | B,2 B,2 !>!B,2- | B,2 B,2 !>!B,2- | B,2 B,2 !>!B,2 | %327
 z2 B,2 B,2 | z2 B,2 B,2 | z2 [CG]2 [CF]2 | z2!pp! [B,G]2 [B,G]2 | [B,G]2 [DG]2 [DG]2 | %332
 [DG]2 ([G,D]2 [G,D]2 | [G,D]2 [A,D]2 [G,D]2 | [G,D]2 [A,D]2 [G,D]2) | z2 D2 D2 | z2 D2 D2 | %337
 z2 [EB]2 [E=A]2 | z2 [DB]2 [DB]2 | [DB]2 [FB]2 [FB]2 | [FB]2 ([=CF]2 [B,F]2 | %341
 [B,F]2 [=CF]2 [B,F]2 | [B,F]2 [=CF]2 [B,F]2) | z2 B,2 B,2 | z2 B,2 B,2 | z2 [CG]2 [CF]2 | %346
 z2 [B,G]2 [B,G]2 | [B,G]2 [DG]2 [DG]2 | [DG]2 ([G,D]2 [G,D]2 | [G,D]2 [A,D]2 [G,D]2 | %350
 [G,D]2 [A,D]2 [G,D]2) | z2 [B,F]2 [B,F]2 | z2 [=B,F]2 [=CF]2 | z2 [=DB]2 [=GB]2 | %354
 z2 [F=A]2 [FA]2 | z2 [B,F]2 [B,F]2 | z2 [=B,F]2 [=CF]2 | z2 [_DB]2 [_GB]2 | z2 [F_c]2 [Fc]2 | %359
 F2!mp!"_dim." (F2 F2 | F2 E2!>(! F2 | F2 E2 F2 | F2 E2 F2)!>)! | z2 B,2 B,2 | z2 [B,G]2 [B,G]2 | %365
 z2 [CG]2 [CF]2 | z2!pp! [B,G]2 [B,G]2 | [B,G]2 [DG]2 [DG]2 | [DG]2 ([G,D]2 [G,D]2 | %369
 [G,D]2 [A,D]2 [G,D]2 | [G,D]2 [A,D]2!pp! [G,D]2) | z2 C2 C2 | z2 [CA]2 [CA]2 | z2 [DA]2 [D=G]2 | %374
 z2 [CA]2 [CA]2 | [CA]2 [EA]2 [EA]2 | [EA]2 ([B,E]2 [A,E]2 | [A,E]2 [B,E]2 [A,E]2 | %378
 [A,E]2 [B,E]2 [A,E]2) | [F,CD]2 [CF]2 [CF]2 | [G,C]2 [G,C]2 [G,C]2 | [A,C]2 [CF]2 [CF]2 | %382
 [G,C]2 [G,C]2 [G,C]2 | [A,C]2 [CF]2 [CF]2 | [CF]2 [=CF]2 [DF]2 | [=DF]2 [EF]2 [_C_D]2 | [B,D]2 |: %387
 x4 | [A,=C]6 | D6 | =C4 DE | =E2 F4 | _E6 | D6 | D6 | =C4 D2 | [A,=C]6 | D4 (A,2 | =C2 B,A,DE | %399
 F4 _F2 | E6) | (__E2 D2- [D_E]2 | [DF]6) | F6 | z2 B,2 B,2 | z2 [B,G]2 [B,G]2 | z2 [CG]2 [CF]2 | %407
 z2!pp! [B,G]2 [B,G]2 | [B,G]2 [DG]2 [DG]2 | [DG]2 ([G,D]2 [G,D]2 | [G,D]2 [A,D]2 [G,D]2 | %411
 [G,D]2 [A,D]2!pp! [G,D]2) | z2 C2 C2 | z2 [CA]2 [CA]2 | z2 [DA]2 [D=G]2 | z2 [CA]2 [CA]2 | %416
 [CA]2 [EA]2 [EA]2 | [EA]2 ([B,E]2 [A,E]2 | [A,E]2 [B,E]2 [A,E]2 | [A,E]2 [B,E]2 [G,CE]2) | %420
 [F,CD]2 [CF]2 [CF]2 | [G,C]2 [G,C]2 [G,C]2 | [A,C]2 [CF]2 [CF]2 | [G,C]2 [G,C]2 [G,C]2 | %424
 [A,C]2 [CF]2 [CF]2 | [CF]2 [=CF]2 [DF]2 |1 [=DF]2 [EF]2 [_C_D]2 | [B,D]2 :|2 [=DF]2 [EF]3 [DF] || %429
 [=DF]2 [EF]3 x | x6 | x6 | x6 | x4[K:bass] x2 || x6 | x2[K:treble] x4 | x6 | x6 | x6 | x6 | x6 | %441
 x6 | x6 | x6 | x6 | x6 | x6 | x6 | x6 | x6 | x6 | x6 | x6 | x6 |[K:bass] x6 | x2[K:treble] x4 | %456
 x6 | x6 | x6 | x6 | x6 | x4[K:bass] x2 | x[K:treble] x5 | x6 | x6 | x6 | x6 | x6 | x6 | x6 || x6 | %471
 x6 | x6 | x6 |!8va(! x2!8va)! x4 | x6 | x6 | x6 |!8va(! x2!8va)! x4 | x6 | x6 | x6 | x6 | %483
 x7/4 ((x/4{/[Bb]))} x2 x2 | x6 | x7/4 ((x/4{/[Aa]))} x2 x2 | x6 | x7/4 ((x/4{/[^F^f]))} x2 x2 | %488
 x6 |!8va(! x2!8va)! x4 | x6 | x6 | x2[K:bass] x4 | x6 |[K:treble] x6 | x4!8va(! x2!8va)! | x6 | %497
 x4!8va(! x2!8va)! |[K:bass] x6 | x2[K:treble] x4 | x6 | x2[K:treble] x4 | x6 | x6 | x6 | x6 | x6 | %507
 x6 | x6 | x6 | x6 | x6 | x6 | x6 | x6 | x6 | x6 | x6 | z2 B,2 B,2 | z2 B,2 B,2 | z2 [CG]2 [CF]2 | %521
 z2!p! [B,G]2 [B,G]2 | [B,G]2"_dim." [DG]2 [DG]2 | [DG]2 ([G,D]2 [G,D]2 | [G,D]2 [A,D]2 [G,D]2 | %525
 [G,D]2 [A,D]2 [G,D]2) | x6 | x6 | x6 | x6 | x6 | x6 | x6 |] %533
[K:Db][M:4/4][K:treble][K:bass] F,2 G,2 F,2 G,2 | F,2 G,2 F,2 G,2 | F,2 G,2 F,2 G,2 | %536
 F,2 G,2 F,2 G,2 | F,2 G,2 F,2 G,2 | F,2 G,2 F,2 G,2 |[K:treble] [B,D]2 [B,D]2 [B,D]2 [B,D]2 | %540
 [B,D]2 [B,D]2 [B,D]2 [B,D]2 |[K:bass] F,2 G,2 F,2 G,2 | F,2 G,2 F,2 G,2 | %543
[K:treble] d2{Ada} d2 d2 B2 | d2{Ada} d2 d2 B2 | F2 G2 F2 G2 | F2 G2 F2 [GA]2 || x8 | x8 | x8 | %550
 x8 | F2 E2 D2 x2 |[K:bass] D2 C2 D,4 | [B,,F,]2 G,2 F,2 G,2 | F,2 G,2 F,2 x2 | x2[K:treble] x6 | %556
 x8 | x8 | x8 | F2 E2 D2 x2 |[K:bass] D2 C2 D,4 | [B,,F,]2 G,2 F,2 G,2 | F,2 G,2 F,2 x2 |: %563
[K:treble] x8 | x8 | x8 | x8 | x8 |(3x/4x/4x/4-x/ x x2 x4 | %569
 x/4x/4x/4x/4(5:4:5x/4x/4x/4x/4x/4 (5:4:5x/4x/4x/4x/4x/4x/4!trill)!x/4x/4x/4 (5:4:2x/4x x3 | x8 :: %571
 x8 | x8 | x8 | x8 | x8 | x8 | x8 | x8 | x8 | x8 | x8 | x8 | x8 |(3x/4x/4x/4-x/ x x2 x4 | %585
 x/4x/4x/4x/4(5:4:5x/4x/4x/4x/4x/4 (5:4:5x/4x/4x/4x/4x/4x/4!trill)!x/4x/4x/4 (5:4:2x/4x x3 |1 %586
 x8 :|2 x8 ||[K:bass] F,2 G,2 F,2 G,2 | F,2 G,2 F,2 G,2 | F,2 G,2 F,2 G,2 | F,2 G,2 F,2 G,2 | %592
 F,2 G,2 F,2 G,2 | F,2 G,2 F,2 G,2 |[K:treble] [B,D]2 [B,D]2 [B,D]2 [B,D]2 | %595
 [B,D]2 [B,D]2 [B,D]2 [B,D]2 |[K:bass] F,2 G,2 F,2 G,2 | F,2 G,2 F,2 G,2 | %598
[K:treble] d2{Ada} d2 d2 B2 | d2{Ada} d2 d2 B2 | F2 G2 F2 G2 | F2 G2 F2 [GA]2 | x8 | x8 | x8 | x8 | %606
 F2 E2 D2 x2 |[K:bass] D2 C2 D,4 | [B,,F,]2 G,2 F,2 G,2 | F,2 G,2 F,2 x2 | x2[K:treble] x6 | x8 | %612
 x8 | x8 | F2 E2 D2 x2 |[K:bass] D2 C2 D,4 | [B,,F,]2 G,2 F,2 G,2 | F,2 G,2 F,2 x2 |] %618
[M:2/2][K:treble][K:bass] x8 | x8 |[K:treble] x8 | x8 | x8 | x8 | x8 | x8 | x8 | x8 | x8 | x8 | %630
 x8 | x8 | x8 | x2[K:bass] x6 | x2[K:treble] x6 | x8 | x8 | x8 | x8 |[K:bass] x8 | x8 | x8 | x8 | %643
 x8 | x4[K:treble] x4 | x8 | x8 | x8 | x8 | x8 | x8 | x8 | x8 | x8 | x8 | x2[K:bass] x6 | x8 | x8 | %658
[K:treble] x8 | x8 | x8 | x8 | x8 | x8 | x8 | x8 | x8 | x8 | x8 | x8 | x8 | x8 | x8 | x8 | x8 | %675
 x8 |[K:bass] x8 | x8 | x8 | x8 | x8 | x8 | x8 | x6[K:treble] x2 | x8 | x8 | x8 | x8 |[K:bass] x8 | %689
 x8 | x8 | x8 | x4[K:treble] x4 |] %693
V:5
 x8 | x4[K:bass] x4 | x16 | x8 |:[K:treble] x8 | x8 | x8 | x8 | x8 | x8 | x8 | x8 | x8 | x8 | x8 | %15
 x8 | x8 | x8 | x8 | x8 | x8 | x8 | x8 | x8 | x8 | x8 | x8 | x8 | x8 | x8 | x8 | x8 | x8 | x8 | %34
 x8 | x8 | x8 | x8 | x8 | x8 | x10 | x8 | x8 | x8 | x !arpeggio!D8 | x8 | x8 | x8 | x9 | x8 | x8 | %51
 x4 (3x/ x/x/ x3 | x8 | x8 | x8 | x8 | x8 | x8 | x8 | x8 | x/x/ x4 x4 | x8 | x8 | x8 | x9 | x8 | %66
 x8 | x8 |!8va(! x8 | x8 | x8 | x8 | x4!8va)! x4 | x8 | x8 | x8 | x8 | x8 | x8 | x8 | x8 | x8 | %82
 x8 | x8 | x8 | x8 | x8 | x8 | x8 | x8 | x8 | x20/3!8va(! x4/3 | x4/3!8va)! x20/3 | x8 | x8 | x8 | %96
 x8 | x8 | x8 | x8 | x8 | x8 | x8 |1 x8 :|2 x8 || x8 |[K:bass] x8 | x8 |[K:treble] x8 | x8 | x8 | %111
 x8 |[K:bass] x8 | x8 | x8 | x8 |[K:treble] x8 | x8 | x8 | x8 | x8 | x8 | x8 | x8 | x8 | x8 | x8 | %127
 x8 | x8 | x8 | x8 | _D8 | x8 | x8 | x8 | x8 | x8 | x8 | x8 | x8 | x8 | x8 | x8 | x8 | x8 | x8 | %146
 x8 | x8 | x8 | x8 | x8 | x8 | x8 | x8 | x8 | x8 | x4!8va(! x4 | _c'2!8va)! z2 x4 | x8 | x8 | x8 | %161
 x8 | x8 | x8 | x8 | x8 | x8 | x8 | x8 ||[K:Bb] x10 | x8 | x8 | x8 | x8 | x8 | x8 | x8 | x8 | x8 | %179
 x8 | x4 !arpeggio!x2 x2 | x8 | x8 | x8 | x8 | x8 | x8 | x8 | x8 | x8 | x8 | x8 | x8 | x9 | x8 | %195
 x8 | x8 | x8 | x8 | x8 | x8 | x8 | x8 | x8 | x8 | x8 | x8 | x8 |{/B,} x8 | x8 | x8 | x8 | x8 | %213
 x8 | x8 | x8 | x8 | x8 | x8 | x8 | x8 | x8 | x8 | x8 | x8 | x8 | x8 | x8 | x8 | x8 | x8 | x8 | %232
 x8 | x8 | x8 | x8 | x8 | x8 | x8 | x8 |!8va(! x8!8va)! |[K:bass] x8 |] %242
[K:Gb][M:3/4][K:treble][K:bass] x2 | x6 | x2[K:treble] x4 | x6 | x6 | x6 | x6 | x6 | x6 | x6 | x6 | %253
 x6 | x6 | x6 | x6 | x6 | x6 | x6 | x6 | x6 | x6 |[K:bass] x6 | x2[K:treble] x4 | x6 | x6 | x6 | %268
 x6 | x6 | x4[K:bass] x2 | x[K:treble] x5 | x6 | x6 | x6 | x6 | x6 | x6 | x6 || x6 | x6 | x6 | x6 | %283
!8va(! x2!8va)! x4 | x6 | x6 | x6 |!8va(! x2!8va)! x4 | x6 | x6 | x6 | x6 | x6 | x6 | x6 | x6 | %296
 x6 | x6 |!8va(! x2!8va)! x4 | x6 | x6 | x2[K:bass] x4 | x6 |[K:treble] x6 | x4!8va(! x2!8va)! | %305
 x6 | x4!8va(! x2!8va)! |[K:bass] x6 | x2[K:treble] x4 | x6 | x6 | x6 | x6 | x6 | x6 | %315
 x2!8va(! x2!8va)! x2 |!8va(! x2!8va)! x4 | x6 | x6 | x6 | x6 | x6 | x6 || x6 | x6 | x6 | x6 | x6 | %328
 x6 | x6 | x6 | x6 | x6 | x6 | x6 | x6 | x6 | x6 | x6 | x6 | x6 | x6 | x6 | x6 | x6 | x6 | x6 | %347
 x6 | x6 | x6 | x6 | x6 | x6 | x6 | x6 | x/4x/4x3/2 x4 | x6 | x6 | x6 | x6 | x6 | x6 | x6 | x6 | %364
 x6 | x6 | x6 | x6 | x6 | x6 | x6 | x6 | x6 | x6 | x6 | x6 | x6 | x6 | x6 | x6 | x6 | x6 | x6 | %383
 x6 | x6 | x6 | x2 |: x4 | x6 | x6 | x6 | x6 | x6 | x6 | x6 | x6 | x6 | x6 | x6 | x6 | x6 | x6 | %402
 x6 | x6 | x6 | x6 | x6 | x6 | x6 | x6 | x6 | x6 | x6 | x6 | x6 | x6 | x6 | x6 | x6 | x6 | x6 | %421
 x6 | x6 | x6 | x6 | x6 |1 x6 | x2 :|2 x6 || x6 | x6 | x6 | x6 | x4[K:bass] x2 || x6 | %435
 x2[K:treble] x4 | x6 | x6 | x6 | x6 | x6 | x6 | x6 | x6 | x6 | x6 | x6 | x6 | x6 | x6 | x6 | x6 | %452
 x6 | x6 |[K:bass] x6 | x2[K:treble] x4 | x6 | x6 | x6 | x6 | x6 | x4[K:bass] x2 | x[K:treble] x5 | %463
 x6 | x6 | x6 | x6 | x6 | x6 | x6 || x6 | x6 | x6 | x6 |!8va(! x2!8va)! x4 | x6 | x6 | x6 | %478
!8va(! x2!8va)! x4 | x6 | x6 | x6 | x6 | x6 | x6 | x6 | x6 | x6 | x6 |!8va(! x2!8va)! x4 | x6 | %491
 x6 | x2[K:bass] x4 | x6 |[K:treble] x6 | x4!8va(! x2!8va)! | x6 | x4!8va(! x2!8va)! |[K:bass] x6 | %499
 x2[K:treble] x4 | x6 | x2[K:treble] x4 | x6 | x6 | x6 | x6 | x6 | x6 | x6 | x6 | x6 | x6 | x6 | %513
 x6 | x6 | x6 | x6 | x6 | x6 | x6 | x6 | x6 | x6 | x6 | x6 | x6 | x6 | x6 | x6 | x6 | x6 | x6 | %532
 x6 |][K:Db][M:4/4][K:treble][K:bass] x8 | x8 | x8 | x8 | x8 | x8 |[K:treble] x8 | x8 | %541
[K:bass] x8 | x8 |[K:treble]x3/2(3:1:3x/x/-x/ x4 x2 |x3/2(3:1:3x/x/-x/ x4 x2 | x8 | x8 || x8 | x8 | %549
 x8 | x8 | x8 |[K:bass] x8 | x8 | x8 | x2[K:treble] x6 | x8 | x8 | x8 | x8 |[K:bass] x8 | x8 | %562
 x8 |:[K:treble] x8 | x8 | x8 | x8 | x8 | x8 | x8 | x8 :: x8 | x8 | x8 | x8 | x8 | x8 | x8 | x8 | %579
 x8 | x8 | x8 | x8 | x8 | x8 | x8 |1 x8 :|2 x8 ||[K:bass] x8 | x8 | x8 | x8 | x8 | x8 | %594
[K:treble] x8 | x8 |[K:bass] x8 | x8 |[K:treble]x3/2(3:1:3x/x/-x/ x4 x2 |x3/2(3:1:3x/x/-x/ x4 x2 | %600
 x8 | x8 | x8 | x8 | x8 | x8 | x8 |[K:bass] x8 | x8 | x8 | x2[K:treble] x6 | x8 | x8 | x8 | x8 | %615
[K:bass] x8 | x8 | x8 |][M:2/2][K:treble][K:bass] x8 | x8 |[K:treble] x8 | x8 | x8 | x8 | x8 | x8 | %626
 x8 | x8 | x8 | x8 | x8 | x8 | x8 | x2[K:bass] x6 | x2[K:treble] x6 | x8 | x8 | x8 | x8 | %639
[K:bass] x8 | x8 | x8 | x8 | x8 | x4[K:treble] x4 | x8 | x8 | x8 | x8 | x8 | x8 | x8 | x8 | x8 | %654
 x8 | x2[K:bass] x6 | x8 | x8 |[K:treble] x8 | x8 | x8 | x8 | x8 | x8 | x8 | x8 | x8 | x8 | x8 | %669
 x8 | x8 | x8 | x8 | x8 | x8 | x8 |[K:bass] x8 | x8 | x8 | x8 | x8 | x8 | x8 | x6[K:treble] x2 | %684
 x8 | x8 | x8 | x8 |[K:bass] x8 | x8 | x8 | x8 | x4[K:treble] x4 |] %693
V:6
 x8 | x4[K:bass] x4 | x16 | x8 |:[K:treble] x8 | x8 | x8 | x8 | x8 | x8 | x8 | x8 | x8 | x8 | x8 | %15
 x8 | x8 | x8 | x8 | x8 | x8 | x8 | x8 | x8 | x8 | x8 | x8 | x8 | x8 | x8 | x8 | x8 | x8 | x8 | %34
 x8 | x8 | x8 | x8 | x8 | x8 | x10 | x8 | x8 | x8 | x9 | x8 | x8 | x8 | x9 | x8 | x8 | _E8 | x8 | %53
 x8 | x8 | x8 | x8 | x8 | x8 | x8 | x9 | x8 | x8 | x8 | x9 | x8 | x8 | x8 |!8va(! x8 | x8 | x8 | %71
 x8 | x4!8va)! x4 | x8 | x8 | x8 | x8 | x8 | x8 | x8 | x8 | x8 | x8 | x8 | x8 | x8 | x8 | x8 | x8 | %89
 x8 | x8 | x20/3!8va(! x4/3 | x4/3!8va)! x20/3 | x8 | x8 | x8 | x8 | x8 | x8 | x8 | x8 | x8 | x8 |1 %103
 x8 :|2 x8 || x8 |[K:bass] x8 | x8 |[K:treble] x8 | x8 | x8 | x8 |[K:bass] x8 | x8 | x8 | x8 | %116
[K:treble] x8 | x8 | x8 | x8 | x8 | x8 | x8 | x8 | x8 | x8 | x8 | x8 | x8 | x8 | x8 | x8 | x8 | %133
 x8 | x8 | x8 | x8 | x8 | x8 | x8 | x8 | x8 | x8 | x8 | x8 | x8 | x8 | x8 | x8 | x8 | x8 | x8 | %152
 x8 | x8 | x8 | x8 | x4!8va(! x4 | x2!8va)! x6 | x8 | x8 | x8 | x8 | x8 | x8 | x8 | x8 | x8 | x8 | %168
 x8 ||[K:Bb] x10 | x8 | x8 | x8 | x8 | x8 | x8 | x8 | x8 | x8 | x8 | x8 | x8 | x8 | x8 | x8 | x8 | %186
 x8 | x8 | x8 | x8 | x8 | x8 | x8 | x9 | x8 | x8 | x8 | x8 | x8 | x8 | x8 | x8 | x8 | x8 | x8 | %205
 x8 | x8 | x8 | x8 | x8 | x8 | x8 | x8 | x8 | x8 | x8 | x8 | x8 | x8 | x8 | x8 | x8 | x8 | x8 | %224
 x8 | x8 | x8 | x8 | x8 | x8 | x8 | x8 | x8 | x8 | x8 | x8 | x8 | x8 | x8 | x8 |!8va(! x8!8va)! | %241
[K:bass] x8 |][K:Gb][M:3/4][K:treble][K:bass] x2 | x6 | x2[K:treble] x4 | x6 | x6 | x6 | x6 | x6 | %250
 x6 | x6 | x6 | x6 | x6 | x6 | x6 | x6 | x6 | x6 | x6 | x6 | x6 |[K:bass] x6 | x2[K:treble] x4 | %265
 x6 | x6 | x6 | x6 | x6 | x4[K:bass] x2 | x[K:treble] x5 | x6 | x6 | x6 | x6 | x6 | x6 | x6 || x6 | %280
 x6 | x6 | x6 |!8va(! x2!8va)! x4 | x6 | x6 | x6 |!8va(! x2!8va)! x4 | x6 | x6 | x6 | x6 | x6 | %293
 x6 | x6 | x6 | x6 | x6 |!8va(! x2!8va)! x4 | x6 | x6 | x2[K:bass] x4 | x6 |[K:treble] x6 | %304
 x4!8va(! x2!8va)! | x6 | x4!8va(! x2!8va)! |[K:bass] x6 | x2[K:treble] x4 | x6 | x6 | x6 | x6 | %313
 x6 | x6 | x2!8va(! x2!8va)! x2 |!8va(! x2!8va)! x4 | x6 | x6 | x6 | x6 | x6 | x6 || x6 | x6 | x6 | %326
 x6 | x6 | x6 | x6 | x6 | x6 | x6 | x6 | x6 | x6 | x6 | x6 | x6 | x6 | x6 | x6 | x6 | x6 | x6 | %345
 x6 | x6 | x6 | x6 | x6 | x6 | x6 | x6 | x6 | x6 | x6 | x6 | x6 | x6 | x6 | x6 | x6 | x6 | x6 | %364
 x6 | x6 | x6 | x6 | x6 | x6 | x6 | x6 | x6 | x6 | x6 | x6 | x6 | x6 | x6 | x6 | x6 | x6 | x6 | %383
 x6 | x6 | x6 | x2 |: x4 | x6 | A,2 x4 | x6 | x6 | x6 | x6 | x6 | x6 | x6 | x6 | x6 | x6 | x6 | %401
 x6 | x6 | x6 | x6 | x6 | x6 | x6 | x6 | x6 | x6 | x6 | x6 | x6 | x6 | x6 | x6 | x6 | x6 | x6 | %420
 x6 | x6 | x6 | x6 | x6 | x6 |1 x6 | x2 :|2 x6 || x6 | x6 | x6 | x6 | x4[K:bass] x2 || x6 | %435
 x2[K:treble] x4 | x6 | x6 | x6 | x6 | x6 | x6 | x6 | x6 | x6 | x6 | x6 | x6 | x6 | x6 | x6 | x6 | %452
 x6 | x6 |[K:bass] x6 | x2[K:treble] x4 | x6 | x6 | x6 | x6 | x6 | x4[K:bass] x2 | x[K:treble] x5 | %463
 x6 | x6 | x6 | x6 | x6 | x6 | x6 || x6 | x6 | x6 | x6 |!8va(! x2!8va)! x4 | x6 | x6 | x6 | %478
!8va(! x2!8va)! x4 | x6 | x6 | x6 | x6 | x6 | x6 | x6 | x6 | x6 | x6 |!8va(! x2!8va)! x4 | x6 | %491
 x6 | x2[K:bass] x4 | x6 |[K:treble] x6 | x4!8va(! x2!8va)! | x6 | x4!8va(! x2!8va)! |[K:bass] x6 | %499
 x2[K:treble] x4 | x6 | x2[K:treble] x4 | x6 | x6 | x6 | x6 | x6 | x6 | x6 | x6 | x6 | x6 | x6 | %513
 x6 | x6 | x6 | x6 | x6 | x6 | x6 | x6 | x6 | x6 | x6 | x6 | x6 | x6 | x6 | x6 | x6 | x6 | x6 | %532
 x6 |][K:Db][M:4/4][K:treble][K:bass] x8 | x8 | x8 | x8 | x8 | x8 |[K:treble] x8 | x8 | %541
[K:bass] x8 | x8 |[K:treble] x8 | x8 | x8 | x8 || x8 | x8 | x8 | x8 | x8 |[K:bass] x8 | x8 | x8 | %555
 x2[K:treble] x6 | x8 | x8 | x8 | x8 |[K:bass] x8 | x8 | x8 |:[K:treble] x8 | x8 | x8 | x8 | x8 | %568
 x8 | x8 | x8 :: x8 | x8 | x8 | x8 | x8 | x8 | x8 | x8 | x8 | x8 | x8 | x8 | x8 | x8 | x8 |1 x8 :|2 %587
 x8 ||[K:bass] x8 | x8 | x8 | x8 | x8 | x8 |[K:treble] x8 | x8 |[K:bass] x8 | x8 |[K:treble] x8 | %599
 x8 | x8 | x8 | x8 | x8 | x8 | x8 | x8 |[K:bass] x8 | x8 | x8 | x2[K:treble] x6 | x8 | x8 | x8 | %614
 x8 |[K:bass] x8 | x8 | x8 |][M:2/2][K:treble][K:bass] x8 | x8 |[K:treble] x8 | x8 | x8 | x8 | x8 | %625
 x8 | x8 | x8 | x8 | x8 | x8 | x8 | x8 | x2[K:bass] x6 | x2[K:treble] x6 | x8 | x8 | x8 | x8 | %639
[K:bass] x8 | x8 | x8 | x8 | x8 | x4[K:treble] x4 | x8 | x8 | x8 | x8 | x8 | x8 | x8 | x8 | x8 | %654
 x8 | x2[K:bass] x6 | x8 | x8 |[K:treble] x8 | x8 | x8 | x8 | x8 | x8 | x8 | x8 | x8 | x8 | x8 | %669
 x8 | x8 | x8 | x8 | x8 | x8 | x8 |[K:bass] x8 | x8 | x8 | x8 | x8 | x8 | x8 | x6[K:treble] x2 | %684
 x8 | x8 | x8 | x8 |[K:bass] x8 | x8 | x8 | x8 | x4[K:treble] x4 |] %693

